!!!!SEGMENT: pl-wn--mus-iii-78-761-cim--pc1_zarebski-juliusz--ballade-op-18-post-correcturam-pc1.krn
!!!cenid: 18xx:3555b
!!!COM: Zarębski, Juliusz
!!!COM-rismID: pe30020631
!!!CDT: 1854/02/28-1885/09/15
!!!CNT:
!!!OTL: Ballade op. 18 [post correcturam]
!!!PDT:
!!!AGN:
!!!SMS-siglum: PL-Wn
!!!SMS-shelfmark: Mus.III.78.761 Cim
!!!SMS-shelfwork: W
!!!SMS-variant:
!!!SMS-altvar:
!!!NIFC-rismSourceID:
!!!NIFC-rismChildID:
!!!NIFC-islandoraID: none
!!!URL-pdf-islandora:
!!!URL-scan: https://polona2.pl/item/ballade-pour-piano-oeuvre-18,NTM4MjU5NjE/6 @EN{Scan on Polona} @PL{Skany w portalu Polona}
!!!IIIF: https://polona2.pl/iiif/item/NTM4MjU5NjE/manifest.json
!!!ONB-nifc:
!!!AIN: 1 piano
!!!key: g
**kern	**fing	**kern	**fing	**dynam
*part1	*	*part1	*	*part1
*staff2	*	*staff1	*	*
*I"PIANO.	*	*I"PIANO.	*	*
*I'pf	*	*I'pf	*	*
*Ipiano	*	*Ipiano	*	*
*ICklav	*	*ICklav	*	*
*clefG2	*	*clefG2	*	*
*k[b-e-]	*	*k[b-e-]	*	*
*g:	*	*g:	*	*
*M6/8	*	*M6/8	*	*
=1	=1	=1	=1	=1
*xywh-3:363,747,2405,644	*	*xywh-3:363,747,2405,644	*	*
!	!	!LO:TX:a:t=Moderato.	!	!
!	!	!LO:TX:t=P:problem=drugie metrum w nawiasie - 2/4	!	!
2.r	.	4r	.	p
!	!	!LO:TX:b:i:t=espressivo	!	!
.	.	(>8ggg 8bb-\	.	.
.	.	4eee- 4gg\	.	.
.	.	8fff 8aa-X\	.	.
=2	=2	=2	=2	=2
4r	.	2.eee- 2.gg\)	.	.
(>8b-\	.	.	.	<
4cc\	.	.	.	.
8qee-/	.	.	.	.
8dd-X\	.	.	.	[
=3	=3	=3	=3	=3
4.cc\	.	4r	.	>
.	.	(>8eee- 8gg\	.	.
4.b-\)	.	4ddd-X 4ff\	.	.
.	.	8eee- 8gg\	.	]
=4	=4	=4	=4	=4
4r	.	2.ddd-X 2.ff\)	.	.
(<8a-X/	.	.	.	<
4a-/	.	.	.	.
8qcc/	.	.	.	.
8b-/	.	.	.	[
!!LO:LB:g=original
=5	=5	=5	=5	=5
*xywh-3:306,1395,2475,578	*	*xywh-3:306,1395,2475,578	*	*
4.a-X/	.	4r	.	>
.	.	(>8ddd-X 8ff\	.	.
4.g/)	.	4bb- 4dd-X\	.	]
.	.	8ccc 8ee-\	.	.
=6	=6	=6	=6	=6
4r	.	2.bb- 2.dd-X\)	.	.
(<8e-/	.	.	.	<
4f/	.	.	.	.
8qa-X/	.	.	.	.
8g/	.	.	.	[
=7	=7	=7	=7	=7
4.f/	.	4r	.	>
.	.	(>8bb- 8dd-X\	.	.
4.e-/)	.	4gg 4b-\	.	.
.	.	8aa-X 8cc\	.	]
=8	=8	=8	=8	=8
4r	.	2.gg 2.b-\)	.	.
(<8B-/	.	.	.	<
4c/	.	.	.	.
(<8qe-/	.	.	.	.
8d-X/))	.	.	.	[
=9	=9	=9	=9	=9
2.d-X/	.	4r	.	.
.	.	(>8gg 8b-\	.	.
.	.	4ee- 4g\	.	.
.	.	8ff 8a-X\	.	.
!!LO:LB:g=original
=10	=10	=10	=10	=10
*xywh-3:311,1974,2453,591	*	*xywh-3:311,1974,2453,591	*	*
4r	.	2.ee- 2.g\)	.	.
(<8B-/	.	.	.	<
4c/	.	.	.	.
8qe-/	.	.	.	.
8d-X/)	.	.	.	[
=11	=11	=11	=11	=11
2.d-X/	.	4r	.	.
.	.	(>8gg 8b-\	.	.
.	.	4een 4g\	.	.
.	.	8ff 8a-X\	.	.
=12	=12	=12	=12	=12
4r	.	2.een 2.g\)	.	.
(<8B-/	.	.	.	<
4c/	.	.	.	.
8qe-X/	.	.	.	.
8d-X/)	.	.	.	[
=13	=13	=13	=13	=13
*ped	*	*	*	*
!	!	!LO:TX:b:i:t=dim.:problem=dynamics with extension lines	!	!LO:HP:b:t=dim.:ext=ud
[<2.c#X/	.	4r	.	>
.	.	8een 8g#X\	.	.
.	.	[>4.ee [<4.g#\	.	.
=14	=14	=14	=14	=14
*Xped	*	*	*	*
4c#/]	.	4ee] 4g#\]	.	.
*clefF4	*	*	*	*
8c#X 8An 8C#X\	.	8een 8an 8en/	.	]pp
*ped	*	*	*	*
[>4.c# [>4.A [<4.C#\	.	[>4.ee [>4.a [<4.e/	.	]]
!!LO:LB:g=original
=15	=15	=15	=15	=15
*xywh-3:372,3130,2392,442	*	*xywh-3:372,3130,2392,442	*	*
!LO:TX:t=Pour les Amateurs.	!	!	!	!
4.c#X] 4.A] 4.C#X\]	.	4eenX] 4a] 4enX/]	.	.
.	.	(>8ffn\	.	.
(>4B- 4D\	.	4aa- 4a-\	.	f
8Bn\	.	8gg-\	.	.
=16	=16	=16	=16	=16
!	!	!	!	!LO:HP:a
4c 4E-\	.	4ff 4g-\	.	>
8d-\	.	8ee-\	.	.
[>4.e-\) [<4.E-\	.	4dd- 4an\	.	.
.	.	8cc\)	.	]
=17	=17	=17	=17	=17
4.e-\] 4.E-\]	.	(>4.cc\	.	.
.	.	.	.	.
4dn\ (>4F#\	.	[>4.b-/) [<4.f#/	.	>
8Fn\	.	.	.	.
=18	=18	=18	=18	=18
4E-\	.	4.b-/] 4.f#y/]	.	.
8D\	.	.	.	.
4C/	.	[>4.b-/ [<4.f#X/ [<4.d/	.	]
8BB-/)	.	.	.	.
!!LO:PB:g=original
=19	=19	=19	=19	=19
*^	*	*	*	*
*xywh-4:537,1020,2478,368	*xywh-4:537,1020,2478,368	*	*xywh-4:537,1020,2478,368	*	*
4.BB-/	4.ryy	.	4b-/] 4f#X/] 4d/]	.	.
.	.	.	(>8b-\	.	.
[<4.C\	(>4G/	.	4dd/ 4e-	.	mf
.	8A/)	.	8cc\	.	.
*v	*v	*	*	*	*
=20	=20	=20	=20	=20
*^	*	*	*	*
*	*	*	*^	*	*
*	*xywh-4:537,1020,2478,368	*	*	*xywh-4:537,1020,2478,368	*	*
4.C\]	4B-/	.	4.e-\	4b-/	.	.
.	[>8c/	.	.	8a/	.	.
[<\4.D	[>4.c/]	.	[<4.e-\	4g/	.	.
.	.	.	.	8f#/)	.	.
*	*	*	*v	*v	*	*
*v	*v	*	*	*	*
=21	=21	=21	=21	=21
*	*	*^	*	*
*	*	*	*xywh-4:537,1020,2478,368	*	*
4.c\] 4.D\]	.	4.e-\]	4.f#/	.	.
.	.	.	.	.	.
[4.B-\ [4.E-\	.	4e-\	[>4.g/	.	p
.	.	8d\	.	.	.
=22	=22	=22	=22	=22	=22
2.B-\] 2.E-\]	.	4c\	2.g/]	.	.
.	.	8B-\	.	.	.
.	.	4c\	.	.	.
.	.	8d\	.	.	.
!!LO:LB:g=original
=23	=23	=23	=23	=23	=23
*^	*	*	*	*	*
*xywh-4:553,1942,2448,419	*xywh-4:553,1942,2448,419	*	*xywh-4:553,1942,2448,419	*xywh-4:553,1942,2448,419	*	*
4r	4.ryy	.	4r	4.d\	.	.
8r	.	.	8r	.	.	.
4.D\	4G/	.	(>4dd/	4.d\	.	pp
.	8A/	.	8cc/	.	.	.
*	*	*	*v	*v	*	*
=24	=24	=24	=24	=24	=24
*	*	*	*^	*	*
*	*	*	*	*xywh-4:553,1942,2448,419	*	*
(<4.C\	4B-/	.	4b-/	4.e-\	.	.
.	[>8c/	.	8a/	.	.	.
.	.	.	.	.	.	.
!	!LO:N:vis=4	!	!	!	!	!
[<4.D\)	4.c/_>	.	4g/	[<4.e-\	.	.
.	.	.	8f#/)	.	.	.
*v	*v	*	*	*	*	*
=25	=25	=25	=25	=25	=25
4.c\] 4.D\]	.	(>4g/	4.e-\]	.	.
.	.	8f#/	.	.	.
[>4.c\ [<4.D\	.	4b-/	[<4.f# 4.[<e-\	.	.
.	.	8a/	.	.	.
=26	=26	=26	=26	=26	=26
4.c\] 4.D\]	.	4cc/	4.f#] 4.e-\]	.	.
!	!	!LO:TX:b:i:t=poco rit.	!	!	!
.	.	8b-/	.	.	.
4.c\ 4.A\ 4.D\	.	4dd/	4.f# 4.e-\	.	.
.	.	8cc#/)	.	.	.
*	*	*v	*v	*	*
!!LO:LB:g=original
=27||	=27||	=27||	=27||	=27||
*xywh-4:558,2393,2489,626	*	*xywh-4:558,2393,2489,626	*	*
!	!	!LO:TX:a:i:t=molto espressivo	!	!
*ped	*	*	*	*
4GG 4GGG/	.	4r	.	p
!LO:TX:b:i:t=à chaque mésure	!	!	!	!
(>8D\	.	(>8dd\	.	.
4.d) 4.B- 4.G\	.	8b-/L	.	.
.	.	8a/	.	.
.	.	8g/J)	.	.
=28	=28	=28	=28	=28
4GG/	.	4r	.	.
(>8D\	.	(<8a/	.	.
4.c) 4.A 4.G\	.	4.e-/)	.	.
=29	=29	=29	=29	=29
4GG/	.	4r	.	.
8D\	.	(<8a/	.	.
4c (>4B-\	.	4e-/	.	.
.	.	8qg/	.	.
8A\)	.	8f/	.	.
=30	=30	=30	=30	=30
4GG/	.	4.e-/	.	.
8D\	.	.	.	.
4.c 4.F#X\	.	4.d/)	.	.
=31	=31	=31	=31	=31
4GG/	.	4r	.	.
8D\	.	(>8d/	.	<
4.B- 4.G\	.	4en/	.	.
.	.	8f#X/	.	.
=32	=32	=32	=32	=32
4EE-/	.	4a/	.	.
[8E-\	.	8g/	.	.
4.c 4.E-\]	.	4b- 4f#X/	.	.
.	.	8cc\)	.	[[
!!LO:LB:g=original
=33	=33	=33	=33	=33
*xywh-4:553,3068,2453,547	*	*xywh-4:553,3068,2453,547	*	*
4BB-/	.	(<[>4.dd [<4.f#X/	.	>
[8F#X\	.	.	.	.
4d 4F#\]	.	4dd] 4f#/]	.	.
8G\	.	8b- 8g/	.	.
=34	=34	=34	=34	=34
4BB-/	.	2.dd 2.f#X/)	.	]
[8F#X\	.	.	.	.
4.d 4.F#\]	.	.	.	.
=35	=35	=35	=35	=35
4BB-/	.	4r	.	.
[<8En\	.	(>8f#X/	.	<
4.d 4.G 4.E\]	.	4g/	.	.
.	.	8cc\	.	.
=36	=36	=36	=36	=36
4AA/	.	4b-\	.	.
[<8A\	.	8a/	.	.
4.g 4.c#X 4.A\]	.	4dd#X\	.	.
.	.	8een\	.	[[
=37	=37	=37	=37	=37
*	*	*^	*	*
*	*	*	*xywh-4:553,3068,2453,547	*	*
4DD/	.	4.ff/	4g#X\	.	>
(>8D\	.	.	8a\	.	.
4.f 4.G#X\)	.	4cc#X/	4.b-\	.	.
.	.	8dd/	.	.	]]
*	*	*v	*v	*	*
!!LO:PB:g=original
=38	=38	=38	=38	=38
*xywh-5:385,405,2390,500	*	*xywh-5:385,405,2390,500	*	*
4DD/	.	4.ff: 4.a: 4.f:\)	.	.
(>8A\	.	.	.	.
4f\)	.	4r	.	.
8r	.	8ff\	.	f
=39	=39	=39	=39	=39
*	*	*^	*	*
*	*	*	*xywh-5:385,405,2390,500	*	*
!	!	!LO:TX:b:i:t=appassionato	!	!	!
4GG/	.	(>4gg/	4.cc 4.a-X\	.	.
(>[<8G\	.	8ff/	.	.	.
4.f 4.G\])	.	4cc#X/	4.a-X\	.	.
.	.	8dd/	.	.	.
=40	=40	=40	=40	=40	=40
4C/	.	4ff/	4bn 4a-X\	.	.
(>8G\	.	8ee-/	8g\	.	.
4.e-\)	.	8r	4.b-X 4.f#X\	.	.
.	.	8dd/L	.	.	.
.	.	8ccn/J)	.	.	.
=41	=41	=41	=41	=41	=41
4DD/	.	(>4ee-/	4.an 4.f#X\	.	.
(>[<8D\	.	8dd/	.	.	.
4.c 4.D\])	.	4g#X/	8fn\L	.	.
.	.	.	8en\	.	.
.	.	8a/	8e-X\J	.	.
*	*	*v	*v	*	*
=42	=42	=42	=42	=42
4GG/	.	4cc 4e-/	.	.
(>[<8D\	.	8b- 8d/	.	.
4.B- 4.D\])	.	8r	.	.
.	.	8a/L	.	.
.	.	8g/J)	.	.
!!LO:LB:g=original
=43	=43	=43	=43	=43
*xywh-5:370,901,2400,535	*	*xywh-5:370,901,2400,535	*	*
4EE-/	.	(>4f#X^</	.	.
[<8E-\	.	8g^</	.	.
[>4.G 4.E-\_<	.	4c^</	.	.
.	.	[<8c#X^</	.	.
=44	=44	=44	=44	=44
*^	*	*^	*	*
*	*xywh-5:370,901,2400,535	*	*xywh-5:370,901,2400,535	*	*	*
2.G/]	4E-\]	.	[>4.b-^>/	4c#\]	.	.
.	8D\	.	.	8d\	.	>
.	4.Cn\	.	4b-/]	4.e-\	.	.
.	.	.	8a/)	.	.	]]
*v	*v	*	*	*	*	*
*	*	*v	*v	*	*
=45	=45	=45	=45	=45
4.F#X 4.D\	.	4.cc 4.d/	.	p<
*ped	*	*	*	*
4.G 4.AA^</	.	4.cc#X 4.e-^</	.	[ >
*Xped	*	*	*	*
=46	=46	=46	=46	=46
4.F#X 4.D\	.	4.dd 4.d/	.	]<
*ped	*	*	*	*
[>4.G [<4.AA^>\	.	[>4.cc#X [<4.e-^</	.	[[
=47	=47	=47	=47	=47
8G] 8AA\]	.	8cc#] 8e-/]	.	.
8r	.	8r	.	.
*clefG2	*	*	*	*
(>8gg\	.	(>16aaa\LL	.	pp
.	.	16ccc#X\	.	.
8ee-\L	.	16ggg\	.	.
.	.	16aa\	.	.
8cc#X\	.	16eee-\	.	.
.	.	16gg\	.	.
8a\J	.	16ccc#\	.	.
.	.	16ee-\JJ	.	.
!!LO:LB:g=original
*clefF4	*	*	*	*
=48	=48	=48	=48	=48
*xywh-5:370,1446,2400,530	*	*xywh-5:370,1446,2400,530	*	*
8g\L	.	16aa\LL	.	.
.	.	16cc#X\	.	.
8e-\	.	16gg\	.	.
.	.	16a\	.	.
8c#X\J	.	16ee-\	.	.
.	.	16g\JJ	.	.
8A\L	.	16cc#/LL	.	.
.	.	16e-/	.	.
8G\	.	16a/	.	.
.	.	16c#X/	.	.
8E-\J)	.	16g/	.	.
.	.	16A/JJ)	.	.
=49	=49	=49	=49	=49
*	*	*^	*	*
*	*	*	*xywh-5:370,1446,2400,530	*	*
2.G 2.AA\	.	(>4e-/	4.c#X\	.	.
*Xped	*	*	*	*	*
.	.	8e-/	.	.	.
.	.	16qqe-/LL	.	.	.
.	.	16qqg/JJ	.	.	.
.	.	4f/	4r	.	.
.	.	[>8e-/)	8r	.	.
=50	=50	=50	=50	=50	=50
*ped	*	*	*	*	*
4.F#X 4.D\	.	4e-/]	4cn\	.	<
.	.	(>8d/	8r	.	.
4r	.	4dd/)	4r	.	.
*Xped	*	*	*	*	*
8r	.	[>8dd^>/	8r	.	[[
*	*	*v	*v	*	*
=51	=51	=51	=51	=51
*ped	*	*	*	*
8GGG/	.	4dd\]	.	.
8r	.	.	.	>
(>[<8D\	.	(>8dd\	.	.
4.d 4.B- 4.G 4.D\])	.	8b-/L	.	.
.	.	8a/	.	.
*Xped	*	*	*	*
.	.	8g/J)	.	]]
=52	=52	=52	=52	=52
*ped	*	*	*	*
4GG/	.	4r	.	.
[<(><8D\	.	(<8a/	.	.
*Xped	*	*	*	*
4.c 4.A 4.G 4.D\])	.	4.e-/)	.	.
!!LO:LB:g=original
=53	=53	=53	=53	=53
*^	*	*	*	*
*xywh-5:375,1981,2400,515	*xywh-5:375,1981,2400,515	*	*xywh-5:375,1981,2400,515	*	*
*ped	*	*	*	*	*
4r	4GG/	.	4r	.	.
8r	(>[<8D\	.	(<8a/	.	.
4c 4B-/	4.D\]	.	4e-/	.	.
*Xped	*	*	*	*	*
!	!	!	!	!	!LO:DY:a
.	.	.	8qg/	.	>
8A/)	.	.	8f/	.	.
*v	*v	*	*	*	*
=54	=54	=54	=54	=54
*ped	*	*	*	*
(>4GG/	.	4.e-/	.	.
[<8D\	.	.	.	.
*Xped	*	*	*	*
4.c 4.F#X 4.D\])	.	4.d/)	.	]
=55	=55	=55	=55	=55
*ped	*	*	*	*
4GG/	.	4r	.	.
(>8D\	.	(>8b-\	.	.
4.d) 4.B- 4.G\	.	4f#X/	.	.
.	.	8qa/	.	.
*Xped	*	*	*	*
.	.	8g/	.	.
=56	=56	=56	=56	=56
*ped	*	*	*	*
4F 4FF/	.	4a-X/	.	<
8Bn 8A-X'\	.	8bn\	.	.
4.e- 4.B\	.	4ee-\	.	.
*Xped	*	*	*	*
.	.	8aa-X 8a-\)	.	[
=57	=57	=57	=57	=57
*ped	*	*	*	*
4GG 4GGG/	.	[>4.aa-X [>4.ee- [>4.bn [<4.a-X\	.	f
8Bn 8A-X\	.	.	.	.
4.e- 4.B^>\	.	4aa-] 4ee-] 4b] 4a-\]	.	.
*Xped	*	*	*	*
.	.	8gg 8g\	.	.
!!LO:LB:g=original
=58	=58	=58	=58	=58
*ped	*	*	*	*
*xywh-5:370,2436,2420,650	*	*xywh-5:370,2436,2420,650	*	*
4AAn 4AAAn/	.	4.gg 4.ee- 4.bn 4.g\	.	<
8e- 8Bn\	.	.	.	.
*ped	*	*	*	*
4.BBn 4.BBBn/	.	4gg 4ff 4dd 4g\	.	.
.	.	8ggg 8gg\	.	[[
=59	=59	=59	=59	=59
*ped	*	*	*	*
4C 4CC/	.	(>4.fff 4.ccc 4.ff\	.	ff
(>8e- 8G\	.	.	.	.
4g) 4c\	.	4eee- 4ee-\	.	.
8r	.	8bbn 8bn\	.	.
=60	=60	=60	=60	=60
*	*	*^	*	*
*	*	*	*xywh-5:370,2436,2420,650	*	*
16r	.	4.ddd 4.dd/	16dd\LL	.	.
(>16f#X\LL	.	.	16ff#X\	.	.
16a\	.	.	16aa\	.	.
16g\	.	.	16gg\	.	.
16e-\	.	.	16ee-\	.	.
16c\JJ	.	.	[<16cc\JJ	.	.
*Xped	*	*	*	*	*
8G'\)	.	4ccc 4cc\]	8ryy	.	.
4r	.	.	4ryy	.	.
.	.	8bb-X 8b-X\)	.	.	.
*	*	*v	*v	*	*
=61	=61	=61	=61	=61
*ped	*	*	*	*
4C 4CC/	.	(>4.bb- 4.ee- 4.b-\	.	.
(>8c 8E-\	.	.	.	.
4d) 4G\	.	4aa 4a\	.	.
8r	.	8ff#X 8f#X\	.	.
=62	=62	=62	=62	=62
*	*	*^	*	*
*	*	*	*xywh-5:370,2436,2420,650	*	*
16r	.	4.aa 4.a/	16a\LL	.	.
(>16d\LL	.	.	16dd\	.	.
16f\	.	.	16ffn\	.	.
16e-\	.	.	16ee-\	.	.
16c\	.	.	16cc\	.	.
16G\JJ)	.	.	[<16g\JJ	.	.
*Xped	*	*	*	*	*
4r	.	4gg 4g\]	8ryy	.	.
.	.	.	4ryy	.	.
8r	.	8ff 8f\)	.	.	.
*	*	*v	*v	*	*
!!LO:LB:g=original
=63	=63	=63	=63	=63
*xywh-5:365,3086,2425,640	*	*xywh-5:365,3086,2425,640	*	*
!	!	!	!	!LO:DY:t=meno f
*ped	*	*	*	*
4r	.	(>4.ff 4.cc 4.f\	.	mf
8CC/	.	.	.	.
4G 4C\	.	4ee- 4e-/	.	.
*Xped	*	*	*	*
8r	.	8bn 8Bn/	.	.
=64	=64	=64	=64	=64
*	*	*^	*	*
*	*	*	*xywh-5:365,3086,2425,640	*	*
*ped	*	*	*	*	*
8EE-/	.	4.dd 4.d/	16d\LL	.	.
.	.	.	16f#X\	.	.
4r	.	.	16a\	.	.
.	.	.	16g\	.	.
.	.	.	16e-\	.	.
.	.	.	[<16c\JJ	.	.
16r	.	4cc 4c/]	4ryy	.	.
(>16F#X\LL	.	.	.	.	.
16A\	.	.	.	.	.
16G\J	.	.	.	.	.
*Xped	*	*	*	*	*
8E-'\J)	.	8bn 8Bn/)	8ryy	.	.
=65	=65	=65	=65	=65	=65
*ped	*	*	*	*	*
8EE-/	.	(>4.dd 4.d/	16d\LL	.	.
.	.	.	16f#X\	.	.
4r	.	.	16a\	.	.
.	.	.	16g\	.	.
.	.	.	16c\	.	.
.	.	.	[<16c\JJ	.	.
16r	.	4cc 4c/]	4ryy	.	.
(>16F#X\LL	.	.	.	.	.
16A\	.	.	.	.	.
16G\J	.	.	.	.	.
*Xped	*	*	*	*	*
8E-'\J)	.	8bn 8Bn/)	8ryy	.	.
=66	=66	=66	=66	=66	=66
!	!	!LO:TX:t=P:problem=mixed beam	!	!	!
*ped	*	*	*	*	*
8EEn/	.	(4dd 4d/	16d\LL	.	.
.	.	.	16f#X\	.	.
8r	.	.	16a\	.	.
.	.	.	16g\	.	.
8ryy	.	8cc/	16c</	.	.
.	.	.	16B-</JJ	.	.
!	!	!	!	!	!LO:HP:b=2
16G\LL	.	4b-X/	8ryy	.	<
!	!	!LO:TX:b:i:t=rit.	!	!	!
16En\	.	.	.	.	.
16G\	.	.	4ryy	.	.
16B-\	.	.	.	.	.
*Xped	*	*	*	*	*
16c\	.	8gg 8b-\)	.	.	.
16d\JJ	.	.	.	.	[
*	*	*v	*v	*	*
!!LO:PB:g=original
=67	=67	=67	=67	=67
*xywh-6:527,462,2436,547	*	*xywh-6:527,462,2436,547	*	*
!	!	!LO:TX:a:i:t=a tempo	!	!
4e- 4F^>\	.	(>4.gg 4.an^>\	.	f
8FF/	.	.	.	.
(>4d\	.	4bn\	.	.
*Xped	*	*	*	*
8c\	.	8cc\	.	.
=68	=68	=68	=68	=68
4Bn\)	.	4dd\	.	.
*ped	*	*	*	*
(>[>8e- [>8B [<8F^>\	.	8ee- 8a-X^>\	.	.
*Xped	*	*	*	*
4e-] 4B] 4F\]	.	4an/	.	.
8B-X\	.	8b-\)	.	.
=69	=69	=69	=69	=69
!	!	!	!	!LO:HP:a
4An\)	.	(4bn\	.	>
*ped	*	*	*	*
(>[8e- [>8A [<8F^\	.	8cc 8g-X^</	.	.
*Xped	*	*	*	*
4e-] 4A] 4F\_	.	4gn/	.	.
8A-X 8F\_	.	8a-X/	.	.
=70	=70	=70	=70	=70
4G 4F\])	.	4an/	.	>
!	!	!LO:TX:a:i:t=poco rit.	!	!
8G [<8F\	.	8b- [<8e-/	.	.
4An 4F\]	.	4cc 4e-/]	.	.
8A 8F\	.	8cc#X 8e-/)	.	]]
!!LO:LB:g=original
=71	=71	=71	=71	=71
*xywh-6:496,1009,2467,665	*	*xywh-6:496,1009,2467,665	*	*
!	!	!LO:TX:a:t=Meno mosso.	!	!
*ped	*	*	*	*
4BB- 4BBB-/	.	4.dd: 4.b-: 4.f: 4.d:/	.	pp
!LO:TX:i:t=grazioso	!	!	!	!
[8B-\	.	.	.	.
*Xped	*	*	*	*
4.c: 4.B-:] 4.G: 4.E-:\	.	4.gg: 4.ee-: 4.b-: 4.g:\	.	.
=72	=72	=72	=72	=72
*ped	*	*	*	*
4BB- 4BBB-/	.	(>16ff:LL 16b-: 16f:\	.	.
.	.	16ee-\	.	.
.	.	16dd\	.	.
.	.	16f\	.	.
[8B-\	.	16b-\	.	.
.	.	16dd\JJ)	.	.
*Xped	*	*	*	*
4.c: 4.B-:] 4.G: 4.E-:\	.	4.gg: 4.ee-: 4.b-: 4.g:\	.	.
=73	=73	=73	=73	=73
*ped	*	*	*	*
4BB- 4BBB-/	.	(>16ff:LL 16b-: 16f:\	.	.
.	.	16ee-\	.	.
.	.	16dd\	.	.
.	.	16f\	.	.
(>8c\	.	16b-\	.	.
.	.	16dd\JJ	.	.
4d) 4B- 4F\	.	16bb-\LL	.	.
.	.	16gg\	.	.
.	.	16ff\	.	.
.	.	16b-\	.	.
(>8g\	.	16dd\	.	.
.	.	16ff\JJ	.	.
=74	=74	=74	=74	=74
*^	*	*	*	*
*	*xywh-6:496,1009,2467,665	*	*	*	*
4f) 4d 4B-\	4ryy	.	16ddd\LL	.	.
.	.	.	16ccc\	.	.
.	.	.	16bb-\	.	.
.	.	.	16dd\	.	.
(>8e-\	8ryy	.	16ff\	.	.
.	.	.	16bb-\JJ	.	.
8d/L	4.B- 4.F\	.	16fff\LL	.	.
.	.	.	16eee-\	.	.
8c/	.	.	16ddd\	.	.
.	.	.	16ff\	.	.
8d/J)	.	.	16bb-\	.	.
.	.	.	16ddd\JJ)	.	.
*v	*v	*	*	*	*
!!LO:LB:g=original
=75	=75	=75	=75	=75
*xywh-6:496,1675,2497,639	*	*xywh-6:496,1675,2497,639	*	*
*ped	*	*	*	*
4F 4FF/	.	4.aa: 4.ff: 4.cc: 4.a:\	.	.
[>8f\	.	.	.	.
*Xped	*	*	*	*
4.g 4.f] 4.d 4.B-\	.	4.ddd: 4.bb-: 4.ff: 4.dd:\	.	.
=76	=76	=76	=76	=76
*ped	*	*	*	*
4FF/	.	(>16ccc:LL 16ff: 16cc:\	.	.
.	.	16bb-\	.	.
.	.	16aa\	.	.
.	.	16cc\	.	.
[>8f\	.	16ff\	.	.
.	.	16aa\JJ)	.	.
*ped	*	*	*	*
4.g 4.f] 4.d 4.B-\	.	4.ddd: 4.bb-: 4.ff: 4.dd:\	.	.
=77	=77	=77	=77	=77
*ped	*	*	*	*
4F 4FF/	.	(>16ccc:LL 16ff: 16cc:\	.	.
.	.	16bb-\	.	.
.	.	16aa\	.	.
.	.	16cc\	.	.
*clefG2	*	*	*	*
(>8g/	.	16ff\	.	.
.	.	16aa\JJ	.	.
*ped	*	*	*	*
4a-X 4e- 4c/	.	16eee-\LL	.	.
.	.	16ddd\	.	.
.	.	16ccc\	.	.
.	.	16ee-\	.	.
8cc\	.	16aa-X\	.	.
.	.	16ccc\JJ	.	.
=78	=78	=78	=78	=78
4b-\	.	16bb-\LL	.	.
.	.	16aa-X\	.	.
.	.	16ee-\	.	.
.	.	16cc\	.	.
*Xped	*	*	*	*
8a-X/	.	16ee-\	.	.
.	.	16gg\JJ	.	.
*ped	*	*	*	*
4.g) 4.e- 4.c 4.An/	.	16ff\LL	.	.
.	.	16ee-\	.	.
.	.	16cc\	.	.
.	.	16an\	.	.
.	.	16cc\	.	.
*Xped	*	*	*	*
.	.	16cc#X\JJ)	.	.
!!LO:LB:g=original
*clefF4	*	*	*	*
=79	=79	=79	=79	=79
*xywh-6:506,2315,2487,634	*	*xywh-6:506,2315,2487,634	*	*
*ped	*	*	*	*
4BB- 4BBB-/	.	4.dd: 4.b-: 4.f: 4.d:/	.	.
[>8B-\	.	.	.	.
*ped	*	*	*	*
4.c: 4.B-:] 4.G: 4.E-:\	.	4.gg: 4.ee-: 4.b-: 4.g:\	.	.
=80	=80	=80	=80	=80
*ped	*	*	*	*
4BB- 4BBB-/	.	(>16ff:LL 16b-: 16f:\	.	.
.	.	16ee-\	.	.
.	.	16dd\	.	.
.	.	16f\	.	.
[>8B-\	.	16b-\	.	.
.	.	16dd\JJ)	.	.
*ped	*	*	*	*
4.c: 4.B-:] 4.G: 4.E-:\	.	4.gg: 4.ee-: 4.b-: 4.g:\	.	.
=81	=81	=81	=81	=81
*ped	*	*	*	*
4BB- 4BBB-/	.	(>16ff:LL 16b-: 16f:\	.	.
.	.	16ee-\	.	.
.	.	16dd\	.	.
.	.	16f\	.	.
(>8c\	.	16b-\	.	.
.	.	16dd\JJ	.	.
4d) 4B- 4F\	.	16bb-\LL	.	.
.	.	16gg\	.	.
.	.	16ff\	.	.
.	.	16b-\	.	.
*clefG2	*	*	*	*
(>8g/	.	16dd\	.	.
.	.	16ff\JJ	.	.
=82	=82	=82	=82	=82
4f) 4d 4B-/	.	16ddd\LL	.	<
.	.	16ccc\	.	.
.	.	16bb-\	.	.
.	.	16dd\	.	.
(>8cc\	.	16ff\	.	.
.	.	16bb-\JJ	.	.
4b-) 4f 4d/	.	16fff\LL	.	.
.	.	16eee-\	.	.
.	.	16ddd\	.	.
.	.	16ff\	.	.
*Xped	*	*	*	*
(>8ee-\	.	16bb-\	.	.
.	.	16ddd\JJ)	.	[[
!!LO:LB:g=original
=83	=83	=83	=83	=83
*xywh-6:506,2949,2543,660	*	*xywh-6:506,2949,2543,660	*	*
*ped	*	*	*	*
4dd 4an 4f/	.	(>16fff\LL	.	.
.	.	16eeen\	.	.
.	.	16ddd\	.	.
.	.	16ff\	.	.
*Xped	*	*	*	*
8cc\	.	16aa\	.	.
.	.	16eee\JJ	.	.
4b-\	.	16ddd\LL	.	.
.	.	16aa\	.	.
.	.	16ff\	.	.
.	.	16dd\	.	.
8a/)	.	16ff\	.	.
.	.	16ccc\JJ	.	.
=84	=84	=84	=84	=84
*ped	*	*	*	*
4g 4f 4d (<4c/	.	16bb-\LL	.	>
.	.	16gg\	.	.
.	.	16dd\	.	.
.	.	16b-\	.	.
8f/	.	16dd\	.	.
*Xped	*	*	*	*
.	.	16aa\JJ	.	.
4en/	.	16gg\LL	.	.
.	.	16een\	.	.
.	.	16cc\	.	.
.	.	16b-\	.	.
8d/)	.	16cc\	.	.
.	.	16aa\JJ)	.	]
*clefF4	*	*	*	*
=85	=85	=85	=85	=85
*ped	*	*	*	*
4e- 4F\	.	(>16ff\LL	.	.
.	.	16ee-\	.	.
.	.	16cc\	.	.
.	.	16an\	.	.
8Bn\	.	16a-X\	.	.
.	.	16gg\JJ	.	.
[<4c\	.	16ff\LL	.	.
.	.	16ee-\	.	.
.	.	16cc\	.	.
*Xped	*	*	*	*
.	.	16an\	.	.
[>8g [>8e- 8c\_<	.	16a-X\	.	.
.	.	16gg\JJ	.	.
!!LO:PB:g=original
=86	=86	=86	=86	=86
*xywh-7:331,440,2349,617	*	*xywh-7:331,440,2349,617	*	*
(>4g] 4e-] 4c\]	.	16ff\LL	.	.
.	.	16ee-\	.	.
.	.	16cc\	.	.
.	.	16an\	.	.
8Bn\	.	16a-X\	.	.
.	.	16gg\JJ	.	.
4c\)	.	16ff\LL	.	.
.	.	16ee-\	.	.
.	.	16cc\	.	.
.	.	16an\	.	.
8r	.	16a-X\	.	.
.	.	16gg\JJ)	.	.
=87	=87	=87	=87	=87
*	*	*^	*	*
*	*	*	*	*	*^
*	*	*	*xywh-7:331,440,2349,617	*	*	*
!	!	!LO:TX:t=P:problem=mixed beam	!	!	!LO:HP:a	!
!	!	!	!LO:TX:a:t=P:problem=łuk od 16dd do 4.c	!	!	!
*ped	*	*	*	*	*	*
8BB- 8BBB-/	.	(>4.ff/	16dd\LL	.	<	.
.	.	.	16b-\	.	.	.
16r	.	.	16f\	.	.	.
!	!	!	!	!	!	!LO:DY:b=2:t=sempre p
16ryy	.	.	16d</	.	.	p
16ryy	.	.	16c</	.	.	.
16ryy	.	.	16B-</JJ	.	.	.
*ped	*	*	*	*	*	*
4.c 4.A-X 4.E-\	.	4gg 4ee- 4g\	4.ryy	.	.	.
.	.	8aa-X) 8a-X\	.	.	[	.
*	*	*	*	*	*v	*v
=88	=88	=88	=88	=88	=88
!	!	!LO:TX:t=P:problem=mixed beam	!	!	!LO:HP:a
*ped	*	*	*	*	*
!	!	!	!LO:TX:a:t=P:problem=łuk od 16dd do 4.c	!	!
8BB- 8BBB-/	.	(>4.ff/	16dd\LL	.	<
.	.	.	16b-\	.	.
16r	.	.	16f\	.	.
16ryy	.	.	16d</	.	.
16ryy	.	.	16c</	.	.
16ryy	.	.	16B-</JJ	.	.
*ped	*	*	*	*	*
4.c 4.A-X 4.E-\	.	4gg 4ee- 4g\	4.ryy	.	.
.	.	8aa-X 8a-X\)	.	.	[[
!!LO:LB:g=original
=89	=89	=89	=89	=89	=89
*xywh-7:319,1023,2396,621	*	*xywh-7:319,1023,2396,621	*xywh-7:319,1023,2396,621	*	*
*ped	*	*	*	*	*
!	!	!	!LO:TX:a:t=P:problem=łuk od 16ff do 16D	!	!
8BB- 8BBB-/	.	(>8.ccc/L	16ff\LL	.	.
.	.	.	16dd\JJ	.	.
*	*below	*	*	*	*
!LO:TX:a:i:t=m. g.	!	!	!	!	!
16cc>\LL	1	.	4.ryy	.	.
16b->\	2	16bb-/K	.	.	.
16a-X>\	3	8aa-X/J	.	.	.
16f>\JJ	1	.	.	.	.
!LO:TX:t=P:problem=mixed beam	!	!LO:TX:a:t=P:problem=4ff ma wartość 4.	!	!	!
16e->\LL	2	4ff 4b-/	.	.	.
16d>\	3	.	.	.	.
16c/	1	.	4ryy	.	.
16B-/	2	.	.	.	.
*Xped	*	*	*	*	*
.	.	.	.	.	.
16A-X/	3	8ff#X 8f#X/	.	.	.
16D/JJ	5	.	.	.	.
=90	=90	=90	=90	=90	=90
*	*above	*	*	*	*
*ped	*	*	*	*	*
!LO:TX:a:t=P:problem=łuk od 16C do 4.gg	!	!	!	!	!
16C\LL	3	4.gg 4.ee- 4.g\)	4ryy	.	.
16BB-\	4	.	.	.	.
16C\	3	.	.	.	.
16E-\	2	.	.	.	.
!	!	!LO:TX:b:i:t=m.d.	!	!	!
16G\	1	.	16ryy	.	.
16B-\JJ	2	.	16ryy	.	.
16c\LL	3	4r	16ryy	.	.
16B-\	4	.	16ryy	.	.
16c\	3	.	4ryy	.	.
16e-\JJ	2	.	.	.	.
*	*	*	*	*below	*
8r	.	16g/LL	.	1	.
*Xped	*	*	*	*	*
.	.	16b-/JJ	.	2	.
=91	=91	=91	=91	=91	=91
!	!	!LO:TX:t=P:problem=mixed beam	!	!	!
*ped	*	*	*	*	*
!	!	!LO:TX:a:t=P:problem=łuk od 16dd do 4.c	!	!	!
8BB- 8BBB-/	.	(>4.gg/	16dd\LL	.	.
.	.	.	16b-\	.	.
16r	.	.	16g\	.	.
16ryy	.	.	16d</	.	.
!	!	!	!	!	!LO:HP:t=poco cresc.
16ryy	.	.	16c</	.	<
16ryy	.	.	16B-</JJ	.	.
*Xped	*	*	*	*	*
4.c 4.F#X 4.E-\	.	4aa\ 4ee-\ 4a\	4.ryy	.	.
.	.	8bb-\ 8b-\)	.	.	.
!!LO:LB:g=original
=92	=92	=92	=92	=92	=92
*xywh-7:338,1644,2376,641	*	*xywh-7:338,1644,2376,641	*xywh-7:338,1644,2376,641	*	*
!	!	!LO:TX:a:t=P:problem=łuk od 16dd do 4.c	!	!	!
*ped	*	*	*	*	*
8BB- 8BBB-/	.	(>4.gg/	16dd\LL	.	.
.	.	.	16b-\	.	.
16r	.	.	16g\	.	.
16ryy	.	.	16d</	.	.
16ryy	.	.	16c</	.	.
16ryy	.	.	16B-</JJ	.	.
*ped	*	*	*	*	*
4.c 4.F#X 4.E-\	.	4aa 4ee- 4a\	4.ryy	.	.
.	.	8bb- 8b-\)	.	.	.
=93	=93	=93	=93	=93	=93
*ped	*	*	*	*	*
!	!	!	!LO:TX:a:t=P:problem=łuk od 16gg do 16g	!	!
8BB- 8BBB-/	.	(>8.ddd/L	16gg\LL	.	.
.	.	.	16ee-\JJ	.	.
!LO:TX:a:i:t=m. g.	!	!	!	!	!
16dd>\LL	1	.	8ryy	.	.
16cc>\	2	16ccc/K	.	.	.
16b->\	3	8bb-/J	2ryy	.	.
16g>\JJ	1	.	.	.	.
*Xped	*	*	*	*	*
!LO:TX:t=P:problem=mixed beam	!	!	!	!	!
16e->\LL	2	4gg 4b-/	.	.	.
16d>\	3	.	.	.	.
*	*below	*	*	*	*
16c/	1	.	.	.	.
16B-/	2	.	.	.	.
16c/	1	8aa 8ee- 8a\	.	.	.
16F#X/JJ	4	.	.	.	.
=94	=94	=94	=94	=94	=94
*	*above	*	*	*	*
*ped	*	*	*	*	*
16G\LL	1	4bb- 4dd 4b-\)	4ryy	.	.
16BB-\	5	.	.	.	.
16D\	3	.	.	.	.
16E-\	2	.	.	.	.
!LO:TX:i:t=m. d.	!	!	!	!	!
16G\	.	8ryy	16ryy	.	.
16B-\JJ	.	.	16ryy	.	.
16d\LL	.	4r	16ryy	.	.
16B-\	.	.	16ryy	.	.
16d\	.	.	4ryy	.	.
16e-\	.	.	.	.	.
*Xped	*	*	*	*	*
16g\JJ	.	16r	.	.	.
16r	.	16b-/	.	.	.
!!LO:LB:g=original
=95	=95	=95	=95	=95	=95
*xywh-7:338,2285,2439,691	*	*xywh-7:338,2285,2439,691	*xywh-7:338,2285,2439,691	*	*
*ped	*	*	*	*	*
!	!	!	!LO:TX:a:t=P:problem=łuk od 16een do 4.a-	!	!LO:HP:a
8BB- 8BBB-/	.	(>4.bb-/	16een\LL	.	<
.	.	.	16dd-X\	.	.
!	!	!	!	!	!LO:HP:b=2
16r	.	.	16b-\	.	<
16ryy	.	.	16a-<X/	.	.
16ryy	.	.	16g</	.	.
16ryy	.	.	16en</JJ	.	.
4.a- 4.d-X 4.B-\	.	4ccc 4cc\	4.ryy	.	.
*Xped	*	*	*	*	*
.	.	.	.	.	.
.	.	8ddd-X 8dd-X\	.	.	.
=96	=96	=96	=96	=96	=96
*ped	*	*	*	*	*
!	!	!	!LO:TX:a:t=P:problem=łuk od 16aa- do 16b-	!	!
8BB-/	.	4dddn/	16aa-X\LL	.	.
.	.	.	16dd\JJ	.	.
16cc>\LL	.	.	8ryy	.	.
16b->\	.	.	.	.	[
16a-X>\	.	[>8aaa-X [>8aa-/	2ryy	.	.
16f>\JJ	.	.	.	.	.
16d>\LL	.	8aaa-]L 8bb- 8aa-/]	.	.	.
16B->\	.	.	.	.	.
16d>\	.	8ggg 8gg/	.	.	.
16f>\	.	.	.	.	.
*Xped	*	*	*	*	*
16a->\	.	8fffJ) 8ff/	.	.	.
16b->\JJ	.	.	.	.	.
!!LO:LB:g=original
*clefG2	*	*	*	*	*
=97	=97	=97	=97	=97	=97
*xywh-7:323,2977,2454,629	*	*xywh-7:323,2977,2454,629	*xywh-7:323,2977,2454,629	*	*
!	!	!LO:TX:t=P:problem=mixed beam	!	!	!
*ped	*	*	*	*	*
!	!	!	!LO:TX:a:t=P:problem=łuk od 16aa- do 16a-	!	!
8B-/	.	(>4fff-X/	16aa-X\LL	.	.
.	.	.	16gg-X\	.	.
16ryy	.	.	16ff-<X/	.	.
16ryy	.	.	16ee-</	.	.
!	!	!	!	!	!LO:HP:a
16ryy	.	[>8ddd-X/	16ff-</	.	>
16ryy	.	.	16a-X</JJ	.	.
!	!	!LO:TX:t=P:problem=mixed beam	!	!	!
!	!	!	!LO:TX:a:t=P:problem=łuk od 16gg- do 16f-	!	!
8ryy	.	8ddd-/L]	16gg-\LL	.	.
.	.	.	16ff-X\	.	.
16ryy	.	8ccc/	16dd-<X/	.	.
16ryy	.	.	16cc</	.	.
16ryy	.	[>8bb-/J	16dd-</	.	.
16ryy	.	.	16f-X</JJ	.	.
*Xped	*	*	*	*	*
=98	=98	=98	=98	=98	=98
!	!	!LO:TX:t=P:problem=mixed beam	!	!	!
*ped	*	*	*	*	*
!	!	!	!LO:TX:a:t=P:problem=łuk od 16ddn do 16dn	!	!
8B-/	.	4bb-/]	16ddn\LL	.	.
.	.	.	16cc\	.	.
16ryy	.	.	16b-</	.	.
16ryy	.	.	16a-X</	.	.
16ryy	.	[>8aa-X/	16b-</	.	.
16ryy	.	.	16dn</JJ	.	.
!	!	!LO:TX:t=P:problem=mixed beam	!	!	!
!	!	!	!LO:TX:a:t=P:problem=łuk od 16b- do 16B-	!	!
8ryy	.	8aa-/L]	16b-\LL	.	.
.	.	.	16a\	.	.
16ryy	.	8gg/	16e-</	.	.
16ryy	.	.	16d</	.	.
16ryy	.	8ff/J)	16c</	.	]
*Xped	*	*	*	*	*
.	.	.	.	.	.
16ryy	.	.	16B-</JJ	.	.
!!LO:PB:g=original
*clefF4	*	*	*	*	*
=99	=99	=99	=99	=99	=99
*xywh-8:518,397,2503,694	*	*xywh-8:518,397,2503,694	*xywh-8:518,397,2503,694	*	*
!	!	!LO:TX:t=P:problem=mixed beam	!	!	!
*ped	*	*	*	*	*
!	!	!	!LO:TX:a:t=P:problem=łuk od 16b- do 16A-	!	!
8AA-X/	.	(>4een/	16b-\LL	.	.
.	.	.	16en\	.	.
!	!	!	!	!	!LO:HP:b=2:t=cresc. molto
16ryy	.	.	16d</	.	<
16ryy	.	.	16c</	.	.
16ryy	.	8ff 8f/	16B-</	.	.
16ryy	.	.	16A-X</JJ	.	.
!	!	!LO:TX:t=P:problem=mixed beam	!	!	!
!	!	!	!LO:TX:a:t=P:problem=łuk od 16dd do 16B-	!	!
8ryy	.	4gg/	16dd\LL	.	.
.	.	.	16g\	.	.
16ryy	.	.	16f</	.	.
16ryy	.	.	16d</	.	.
*Xped	*	*	*	*	*
16ryy	.	8aa-X 8a-X/	16c</	.	.
16ryy	.	.	16B-</JJ	.	.
*	*	*v	*v	*	*
=100	=100	=100	=100	=100
*ped	*	*	*	*
(>16GG\LL	.	8aanL 8ee- 8an\	.	.
16BB-\	.	.	.	.
16E-\	.	8bb- 8b-\	.	.
16G\	.	.	.	.
16B-\	.	[>8eee-J [<8ee-\)	.	.
16e-\JJ	.	.	.	.
*ped	*	*	*	*
16g\LL	.	(>8eee-]L 8ee-\]	.	.
16e-\	.	.	.	.
16Bn\	.	8bbn 8bn\	.	.
16G\	.	.	.	.
16E-\	.	[>8eee-J [<8ee-\)	.	.
16BBn\JJ)	.	.	.	.
=101	=101	=101	=101	=101
!	!	!	!	!LO:DY:t=f appassionato
*ped	*	*	*	*
(>16FF\LL	.	(>8eee-]L 8ee-\]	.	f
16C\	.	.	.	.
16E-\	.	8ccc 8cc\	.	.
16G\	.	.	.	.
16c\	.	8eee-J 8ee-\	.	.
16e-\JJ	.	.	.	.
16g\LL	.	4ggg 4eee- 4gg^>\	.	.
16e-\	.	.	.	.
16c\	.	.	.	.
16G\	.	.	.	.
16E-\	.	8fff 8ff\)	.	.
*Xped	*	*	*	*
16C\JJ)	.	.	.	.
!!LO:LB:g=original
=102	=102	=102	=102	=102
*xywh-8:518,1091,2600,649	*	*xywh-8:518,1091,2600,649	*	*
*ped	*	*	*	*
(>16FF\LL	.	(>8eee-L 8ee-\	.	.
16BB-\	.	.	.	.
16E-\	.	8gg-X\	.	.
16G-X\	.	.	.	.
16B-\	.	8bb-\J	.	.
16e-\JJ	.	.	.	.
16g-X\LL	.	4ddd 4dd\	.	.
16e-\	.	.	.	.
16B-\	.	.	.	.
16G-\	.	.	.	.
16E-\	.	8ccc 8cc\)	.	.
*Xped	*	*	*	*
16BB-\JJ)	.	.	.	.
=103	=103	=103	=103	=103
*ped	*	*	*	*
(>16FF\LL	.	(>8bb-L 8b-\	.	>
16D-X\	.	.	.	.
16En\	.	8dd-X\	.	.
16Gn\	.	.	.	.
16B-\	.	8een\J	.	.
16d-X\JJ	.	.	.	.
!	!	!	!	!LO:HP:a
16en\LL	.	4aa 4a\	.	>
16d-\	.	.	.	.
16B-\	.	.	.	.
16G\	.	.	.	.
16E\	.	8bb- 8b-\)	.	] ]]
*Xped	*	*	*	*
16D-\JJ)	.	.	.	.
=104	=104	=104	=104	=104
*	*	*	*	*^
*ped	*	*	*	*	*
(16FF\LL	.	(>8ggL 8g\	.	>	.
16D-X\	.	.	.	.	.
16En\	.	8dd-X\	.	.	.
16G\	.	.	.	.	.
16B-\	.	8een\J	.	.	.
16d-X\JJ	.	.	.	.	.
!	!	!	!	!	!LO:HP:a
16en\LL	.	4aa 4a\	.	.	>
16d-\	.	.	.	.	.
16B-\	.	.	.	.	.
16G\	.	.	.	.	.
16E\	.	8bb- 8b-\)	.	]	]
*Xped	*	*	*	*	*
16D-\JJ)	.	.	.	.	.
*	*	*	*	*v	*v
!!LO:LB:g=original
=105	=105	=105	=105	=105
*xywh-8:477,1741,2642,619	*	*xywh-8:477,1741,2642,619	*	*
*ped	*	*	*	*
(>16FF\LL	.	(>8ggL 8ee-X\	.	p
16BBn\	.	.	.	.
16E-\	.	8a-X\	.	.
16A-X\	.	.	.	.
16Bn\	.	8bn\J)	.	.
16e-\JJ	.	.	.	.
16a-X\LL	.	4.gg 4.ee- 4.b\	.	.
16e-\	.	.	.	.
16B\	.	.	.	.
16F\	.	.	.	.
16B\	.	.	.	.
16e-\JJ	.	.	.	.
=106	=106	=106	=106	=106
!	!	!	!	!LO:HP:a
16a-X\LL	.	4.gg 4.ee- 4.bn\	.	<
16e-\	.	.	.	.
16Bn\	.	.	.	.
16F\	.	.	.	.
16B\	.	.	.	.
16e-\JJ	.	.	.	.
16a-\LL	.	4.gg 4.ee- 4.b\	.	.
16e-\	.	.	.	.
16B\	.	.	.	.
16F\	.	.	.	.
16B\	.	.	.	.
16e-\JJ	.	.	.	[[
=107	=107	=107	=107	=107
!	!	!	!	!LO:DY:a
16a-X\LL	.	(>8ggL 8ee- 8bn\	.	mf
16e-\	.	.	.	.
16Bn\	.	8aa-X\	.	.
16F\	.	.	.	.
16B\	.	8gg\J	.	.
16e-\JJ	.	.	.	.
16a-\LL	.	8ffL 8b\	.	.
16e-\	.	.	.	.
16B\	.	8gg\	.	.
16F\	.	.	.	.
16B\	.	8ff\J)	.	.
16e-\JJ	.	.	.	.
!!LO:LB:g=original
=108	=108	=108	=108	=108
*xywh-8:477,2360,2619,585	*	*xywh-8:477,2360,2619,585	*	*
!	!	!	!	!LO:HP:a
16a-X\LL	.	(>8ee-L 8bn\	.	>
16e-\	.	.	.	.
16Bn\	.	8ff\	.	.
16F\	.	.	.	.
16B\	.	8ee-\J	.	.
16e-\JJ	.	.	.	.
16a-\LL	.	8ddL 8b\	.	.
16e-\	.	.	.	.
16B\	.	8ee-\	.	.
16F\	.	.	.	.
16B\	.	8dd\J)	.	]
*Xped	*	*	*	*
16e-\JJ	.	.	.	.
=109	=109	=109	=109	=109
*	*	*^	*	*
*	*	*	*xywh-8:477,2360,2619,585	*	*
*ped	*	*	*	*	*
16a-X\LL	.	(>8dd/L	2.bn\	.	.
!	!	!	!	!	!LO:HP:t=sempre dim.
16e-\	.	.	.	.	>
16Bn\	.	8ee-/	.	.	.
16F\	.	.	.	.	.
16B\	.	8dd/J	.	.	.
16e-\JJ	.	.	.	.	.
16a-\LL	.	4ff/	.	.	.
16e-\	.	.	.	.	.
16B\	.	.	.	.	.
*Xped	*	*	*	*	*
16F\	.	.	.	.	.
16B\	.	8ee-/)	.	.	.
16e-\JJ)	.	.	.	.	.
=110	=110	=110	=110	=110	=110
*ped	*	*	*	*	*
(>16g\LL	.	(>8dd/L	2.b-X\	.	.
16e-\	.	.	.	.	.
16B-X\	.	8ee-/	.	.	.
16F\	.	.	.	.	.
16B-\	.	8dd/J	.	.	.
16e-\JJ	.	.	.	.	.
16g\LL	.	4ff/	.	.	.
16e-\	.	.	.	.	.
16B-\	.	.	.	.	.
16F\	.	.	.	.	.
16B-\	.	8ee-/)	.	.	.
*Xped	*	*	*	*	*
.	.	.	.	.	.
16e-\JJ)	.	.	.	.	.
!!LO:LB:g=original
=111	=111	=111	=111	=111	=111
*xywh-8:514,2945,2582,690	*	*xywh-8:514,2945,2582,690	*xywh-8:514,2945,2582,690	*	*
*ped	*	*	*	*	*
(>16g-X\LL	.	(>8dd/L	2.b-\	.	pp
16e-\	.	.	.	.	.
16B-\	.	8ee-/	.	.	.
16F\	.	.	.	.	.
16B-\	.	8dd/J	.	.	.
16e-\JJ	.	.	.	.	.
16g-\LL	.	4ff/	.	.	.
16e-\	.	.	.	.	.
16B-\	.	.	.	.	.
16F\	.	.	.	.	.
16B-\	.	8ee-/)	.	.	.
*Xped	*	*	*	*	*
.	.	.	.	.	.
16e-\JJ	.	.	.	.	.
=112	=112	=112	=112	=112	=112
*ped	*	*	*	*	*
16f\LL	.	(>[>4.dd [<4.a\	4.ryy	.	.
16e-\	.	.	.	.	.
16A\	.	.	.	.	.
16F\	.	.	.	.	.
16A\	.	.	.	.	.
16e-\JJ	.	.	.	.	.
!	!	!LO:TX:b:i:t=m. d.	!	!	!
!	!	!LO:TX:a:i:t=rit.	!	!	!
16gn\LL	.	4dd] 4a\]	16gn</	.	.
16e-\	.	.	16ryy	.	.
16A\	.	.	4ryy	.	.
16F\J	.	.	.	.	.
*Xped	*	*	*	*	*
8f\J)	.	8cc\)	.	.	.
=113	=113	=113	=113	=113	=113
!	!	!LO:TX:a:i:t=a tempo	!	!	!LO:DY:b
*ped	*	*	*	*	*
!	!	!	!LO:TX:a:t=P:problem=łuk od 16dd do 18c	!	!
8BB- 8BBB-/	.	(4.ff/	16dd\LL	.	p
.	.	.	16b-\	.	.
16r	.	.	16f\	.	.
!	!	!	!	!	!LO:HP:a:t=cresc. molto
16ryy	.	.	16d</	.	<
16ryy	.	.	16c</	.	.
16ryy	.	.	16B-</JJ	.	.
16c\LL	.	4gg 4ee- 4g\	4.ryy	.	.
*Xped	*	*	*	*	*
.	.	.	.	.	.
16A-X\	.	.	.	.	.
16E-\	.	.	.	.	.
16A-\J	.	.	.	.	.
8c\J	.	8aa-X 8a-X\	.	.	.
!!LO:PB:g=original
=114	=114	=114	=114	=114	=114
*xywh-9:348,486,2383,616	*	*xywh-9:348,486,2383,616	*xywh-9:348,486,2383,616	*	*
!	!	!LO:TX:t=P:problem=mixed beam	!	!	!
*ped	*	*	*	*	*
!	!	!	!LO:TX:a:t=P:problem=łuk od 16een do 16e	!	!
8BB-X 8BBB-X/	.	4.aan/	16een\LL	.	.
.	.	.	16cc#X\	.	.
16r	.	.	16an\	.	.
16ryy	.	.	16f#X</	.	.
16ryy	.	.	16en</	.	.
16ryy	.	.	16c#X</JJ	.	.
*Xped	*	*	*	*	*
16A\LL	.	4bbn 4ee 4bn\	4.ryy	.	.
16En\	.	.	.	.	.
16A\	.	.	.	.	.
16c#y\J	.	.	.	.	.
8eny\J	.	8ccc#X 8cc#\	.	.	.
=115	=115	=115	=115	=115	=115
!	!	!LO:TX:t=P:problem=mixed beam	!	!	!
*ped	*	*	*	*	*
!	!	!	!LO:TX:a:t=P:problem=łuk od 16aa do 8a	!	!
8AA 8AAA/	.	4.ddd/	16aa\LL	.	f
.	.	.	16ff#X\	.	.
16r	.	.	16dd\	.	.
*clefG2	*	*	*	*	*
16ryy	.	.	16bn</	.	.
16ryy	.	.	16a</	.	.
16ryy	.	.	16f#X</JJ	.	.
16d/LL	.	4eeen 4een\	4.ryy	.	.
16A/	.	.	.	.	.
16d/	.	.	.	.	.
16f#/J	.	.	.	.	.
8a/J	.	8fff#X 8ff#X\)	.	.	.
*	*	*v	*v	*	*
*clefF4	*	*	*	*
=116	=116	=116	=116	=116
*	*	*	*above	*
*ped	*	*	*	*
8AA-X 8AAA-X/	.	(>16ggg\LL	5	<
.	.	16aa-X\	1	.
*clefG2	*	*	*	*
(<16dd/LL	.	16bb-\	2	.
16cc/	.	16fffn\	5	.
16b-/	.	16eee-\	4	.
16a-X/JJ	.	16ff\JJ	1	.
16f/LL	.	16ddd\LL	5	.
16d/	.	16ff\	2	.
16c/	.	16dd\	1	.
16B-/J	.	16ccc\	4	.
*Xped	*	*	*	*
8A-X/J)	.	16bb-\	1	[
.	.	16ggg\JJ)	5	.
!!LO:LB:g=original
*clefF4	*	*	*	*
=117	=117	=117	=117	=117
*	*	*xywh-9:348,1095,2399,703	*	*
.	.	8qbbb- 8qeee- 8qbb-/	.	.
*	*	*^	*	*
*xywh-9:348,1095,2399,703	*	*	*xywh-9:348,1095,2399,703	*	*
*ped	*	*	*	*	*
4GG/^^> 4GGG/	.	4.bbb-^^> 4.eee- 4.bb-/	8r	.	ff
!	!	!LO:TX:t=P:problem=mixed beam	!	!	!
!	!	!LO:TX:a:i:t=con bravura	!	!	!LO:HP:b=2
.	.	.	16b-LL 16e- 16B-\	.	<
.	.	.	16b- 16e- 16B-\	.	.
16ryy	.	.	16c</ 16G</ 16E-</	.	.
16ryy	.	.	16c</JJ 16G</ 16E-</	.	.
!	!	!LO:TX:t=P:problem=mixed beam	!	!	!
8ryy	.	4r	16bb-LL 16ee- 16b-\	.	.
.	.	.	16bb- 16ee- 16b-\	.	.
*clefG2	*	*	*	*	*
16ryy	.	.	16cc< 16g< 16e-</	.	.
16ryy	.	.	16cc<JJ 16g< 16e-</	.	.
8r	.	(>8aaan 8aan/	8ryy	.	[
*	*	*v	*v	*	*
=118	=118	=118	=118	=118
*	*below	*	*	*
(<16ff/LL	1	8bb-\L	.	.
16ee-/	2	.	.	.
16b-/	4	8aaa-X 8aa-X\	.	.
16g/	5	.	.	.
16cc/	1	8gggJ 8gg\	.	.
16b-/	2	.	.	.
16g/	4	8bb-\L	.	.
16e-/	5	.	.	.
16a-X/	1	8fff 8ff\	.	.
16g/	2	.	.	.
16e-/	3	8eee-J 8ee-\)	.	.
*Xped	*	*	*	*
16B-/JJ)	5	.	.	.
*clefF4	*	*	*	*
=119	=119	=119	=119	=119
.	.	8qggg 8qeee- 8qgg/	.	.
*	*	*^	*	*
*	*	*	*xywh-9:348,1095,2399,703	*	*
*ped	*	*	*	*	*
4GG^^> 4GGG/	.	4.ggg^^> 4.eee- 4.gg/	8r	.	.
!	!	!LO:TX:t=P:problem=mixed beam	!	!	!LO:HP:b=2
.	.	.	16bnLL 16e- 16Bn\	.	<
.	.	.	16b 16e- 16B\	.	.
16ryy	.	.	16G</ 16E-</	.	.
16ryy	.	.	16G</JJ 16E-</	.	.
!	!	!LO:TX:t=P:problem=mixed beam	!	!	!
8ryy	.	4r	16bbnLL 16ee- 16bn\	.	.
.	.	.	16bb 16ee- 16b\	.	.
16ryy	.	.	16g</ 16e-</	.	.
16ryy	.	.	16g</JJ 16e-</	.	.
8r	.	(>8fff 8ff/	8ryy	.	[
*	*	*v	*v	*	*
!!LO:LB:g=original
*clefG2	*	*	*	*
=120	=120	=120	=120	=120
*xywh-9:340,1799,2407,624	*	*xywh-9:340,1799,2407,624	*	*
(<16cc/LL	1	8gg\L	.	.
16bn/	2	.	.	.
16g/	4	8eee- 8ee-\	.	.
16e-/	5	.	.	.
16a-X/	1	8dddJ 8dd\	.	.
16g/	2	.	.	.
16e-/	3	8eee-L 8ee-\	.	.
16Bn/	5	.	.	.
16f/	1	8ccc 8cc\	.	.
16e-/	2	.	.	.
16B/	4	8bbnJ 8bn\)	.	.
16G/JJ)	5	.	.	.
*clefF4	*	*	*	*
=121	=121	=121	=121	=121
!	!	!	!	!LO:HP:b=2
.	.	8qddd 8qaa-X 8qeen 8qdd/	.	<
*	*	*^	*	*
*	*	*	*xywh-9:340,1799,2407,624	*	*
*ped	*	*	*	*	*
8AA-X^^> 8AAA-X\	.	4.ddd^^> 4.aa-y 4.eeny 4.dd/	8ryy	.	.
8rDD	.	.	16d<LL 16A-X< 16En< 16D</	.	.
.	.	.	16d<JJ 16A-< 16E< 16D</	.	.
16CLL 16AA-\	.	.	8r	.	.
16CJJ 16AA-\	.	.	.	.	.
!	!	!LO:TX:t=P:problem=mixed beam	!	!	!
8rAA	.	4r	16ddLL 16a-X 16en 16d\	.	.
.	.	.	16dd 16a- 16e 16d\	.	.
16ryy	.	.	16c< 16A-</	.	.
16ryy	.	.	16c<JJ 16A-</	.	.
*Xped	*	*	*	*	*
8rA	.	[>8ddd 8aa- (>8ee [<8dd^/	8ryy	.	[
*	*	*v	*v	*	*
=122	=122	=122	=122	=122
*ped	*	*	*	*
8A-X 8AA-X'\	.	8ddd/] 8ff/) 8dd/]	.	.
!LO:TX:t=P:problem=mixed beam	!	!	!	!
16ryy	.	16c< 16A-<'/LL	.	.
16ryy	.	16ccc 16cc'\	.	.
16ryy	.	16en<'/	.	.
16ryy	.	16bb- 16b-'\JJ	.	.
16ryy	.	16f<'/LL	.	.
16ryy	.	16aa-X 16a-X'\	.	.
16ryy	.	16c<'/	.	.
16ryy	.	16gg 16g'\	.	.
16ryy	.	16A-<'/	.	.
*Xped	*	*	*	*
.	.	.	.	.
16ryy	.	16ff 16f'\JJ	.	.
!!LO:LB:g=original
=123	=123	=123	=123	=123
*xywh-9:340,2424,2427,624	*	*xywh-9:340,2424,2427,624	*	*
.	.	8qeen 8qa-X 8qen/	.	.
*	*	*^	*	*
*	*	*	*xywh-9:340,2424,2427,624	*	*
*ped	*	*	*	*	*
8AA-X 8AAA-X\^^>	.	4ee 4a- 4e/	8ryy	.	.
8r	.	.	16d<LL 16A-<X 16En< 16D</	.	.
!	!	!	!	!	!LO:HP:b=2
.	.	.	16d<JJ 16A-< 16E< 16D</	.	<
16C\LL 16AA-\	.	8r	8ryy	.	.
16C\JJ 16AA-\	.	.	.	.	.
!	!	!LO:TX:t=P:problem=mixed beam	!	!	!
8ryy	.	8ryy	16ddLL 16a- 16e 16d\	.	.
.	.	.	16dd 16a- 16e 16d\	.	.
16ryy	.	8r	16c< 16A-</	.	[
16ryy	.	.	16c<JJ 16A-</	.	.
8r	.	[>8ddd 8aa-X (>8ee [<8dd/	8ryy	.	.
*	*	*v	*v	*	*
=124	=124	=124	=124	=124
*ped	*	*	*	*
8A-X 8AA-X'\	.	8ddd] 8ff) 8dd/]	.	.
16ryy	.	16c< 16A-<'/LL	.	.
16ryy	.	16ccc 16cc'\	.	.
16ryy	.	16en<'/	.	.
16ryy	.	16bb- 16b-'\JJ	.	.
16ryy	.	16f<'/LL	.	.
16ryy	.	16aa-X 16a-X'\	.	.
16ryy	.	16c<'/	.	.
16ryy	.	16gg 16g'\	.	.
16ryy	.	16A-X<'/	.	.
*Xped	*	*	*	*
.	.	.	.	.
16ryy	.	16ff 16f'\JJ	.	.
=125	=125	=125	=125	=125
.	.	8qeen 8qa-X 8qen/	.	fp
*ped	*	*	*	*
8AA-X 8AAA-X\^^>	.	8eeny 8a-y 8eny/	.	.
!	!	!LO:TX:a:i:t=accelerando	!	!
8rFF	.	(16d<LL 16A-X< 16En</	.	.
.	.	16d<JJ 16A-< 16E</	.	.
16CLL 16AA-\	.	8ryy	.	.
16CJJ 16AA-\	.	.	.	.
8rAA	.	16ddLL 16a- 16e\	.	.
.	.	16ddJJ 16a- 16e\	.	.
16cLL 16A-y\	.	8r	.	.
16cJJ 16A-\	.	.	.	.
8rFF	.	16d<LL 16A-< 16E</	.	.
.	.	16d<JJ 16A-< 16E</	.	.
!!LO:LB:g=original
=126	=126	=126	=126	=126
*xywh-9:360,3048,2407,608	*	*xywh-9:360,3048,2407,608	*	*
16CLL 16AA-X/	.	8r	.	.
16CJJ 16AA-/	.	.	.	.
!	!	!LO:TX:b:i:t=cresc. molto :problem=dynamics with extension lines	!	!LO:HP:t=cresc. molto:ext=ud
8r	.	16ddLL 16a-X 16en/	.	<
.	.	16ddJJ 16a- 16e/	.	.
16cLL 16A-X\	.	8r	.	.
16cJJ 16A-\	.	.	.	.
8r	.	16dddLL 16aa-X 16een^>/	.	.
.	.	16dddJJ 16aa- 16ee/	.	.
16cc>LL 16a-y>\	.	8rccc	.	.
16cc>JJ 16a->\	.	.	.	.
8r	.	16ddLL 16a- 16e/	.	.
.	.	16ddJJ 16a- 16e/	.	.
=127	=127	=127	=127	=127
16cLL 16A-X\	.	8r	.	.
16cJJ 16A-\	.	.	.	.
8r	.	16dddLL 16aa-X 16een/	.	.
.	.	16dddJJ 16aa- 16ee/	.	.
16cc>LL 16a-X>\	.	8rccc	.	.
16cc>JJ 16a->\	.	.	.	.
*	*	*8va	*	*
8r	.	16ddddLL 16aaa- 16eee/	.	.
.	.	16ddddJJ 16aaa- 16eee/	.	.
*	*	*X8va	*	*
16ccc>LL 16aa-y>\	.	8rggg	.	.
16ccc>JJ 16aa->\	.	.	.	.
8r	.	16dddLL 16aa- 16ee/	.	.
.	.	16dddJJ 16aa- 16ee/	.	[[
=128	=128	=128	=128	=128
16cc>LL 16a-X>\	.	8rccc	.	<
16cc>JJ 16a->\	.	.	.	.
8r	.	16dddLL 16aa-X 16een/	.	.
.	.	16dddJJ 16aa- 16ee/	.	.
16ccc>LL 16aa-X>\	.	8rggg	.	.
16ccc>JJ 16aa->\	.	.	.	.
*	*	*8va	*	*
8r	.	16ddddLL 16aaan 16eee/	.	.
.	.	16ddddJJ 16aaa 16eee/	.	.
*	*	*X8va	*	*
16ccc>LL 16aa->\	.	8rggg	.	.
16ccc>JJ 16aa->\	.	.	.	.
*	*	*8va	*	*
8r	.	8cccc 8ccc/)	.	[
*Xped	*	*	*	*
.	.	.	.	.
*	*	*X8va	*	*
!!LO:PB:g=original
=129	=129	=129	=129	=129
*xywh-10:539,410,2520,682	*	*xywh-10:539,410,2520,682	*	*
*	*	*8va	*	*
.	.	(>8qbbb- 8qbb-/	.	.
*^	*	*	*	*
*	*xywh-10:539,410,2520,682	*	*	*	*
*ped	*	*	*	*	*
4.ryy	4.BB-/^^> 4.BBB-/	.	16bbb-LL 16bb-^^\	.	.
.	.	.	16ggg\	.	.
.	.	.	16eee-\	.	.
.	.	.	16bb-\	.	.
.	.	.	16eee-\	.	.
.	.	.	16ggg\JJ	.	.
*clefG2	*	*	*	*	*
(>8a-X^>/	16a-\LL	.	16bbb-\LL	.	.
.	16b-\	.	16ggg\	.	.
4ryy	16ee-\	.	16eee-\	.	.
.	16aa-X\	.	16bb-\	.	.
.	16ee-\	.	16eee-\	.	.
.	16b-\JJ	.	16ggg\JJ	.	.
=130	=130	=130	=130	=130	=130
8a-X/^>	16a-\LL	.	16bbb-\LL	.	.
.	16b-\	.	16ggg\	.	.
4ryy	16ee-\	.	16eee-\	.	.
.	16aa-X\	.	16bb-\	.	.
.	16ee-\	.	16eee-\	.	.
.	16b-\JJ	.	16ggg\JJ	.	.
8g/^>	16g\LL	.	16bbb-\LL	.	.
.	16b-\	.	16ggg\	.	.
4ryy	16ee-\	.	16eee-\	.	.
.	16gg\	.	16bb-\	.	.
.	16ee-\	.	16eee-\	.	.
.	16b-\JJ)	.	16ggg\JJ	.	.
=131	=131	=131	=131	=131	=131
(>8f/	16f\LL	.	16bbb-\LL	.	.
.	16b-\	.	16ggg\	.	.
4ryy	16ee-\	.	16eee-\	.	.
.	16gg\	.	16bb-\	.	.
.	16ee-\	.	16eee-\	.	.
.	16b-\JJ	.	16ggg\JJ	.	.
8g/	16g\LL	.	16bbb-\LL	.	.
.	16b-\	.	16ggg\	.	.
4ryy	16ee-\	.	16eee-\	.	.
.	16gg\	.	16bb-\	.	.
.	16ee-\	.	16eee-\	.	.
.	16b-\JJ	.	16ggg\JJ)	.	.
*v	*v	*	*	*	*
!!LO:LB:g=original
=132	=132	=132	=132	=132
*^	*	*	*	*
*xywh-10:508,1093,2551,602	*xywh-10:508,1093,2551,602	*	*xywh-10:508,1093,2551,602	*	*
8e-/	16e-\LL	.	(>16ggg\LL	.	.
.	16g\	.	16eee-\	.	.
4ryy	16b-\	.	16bb-\	.	.
.	16ee-\	.	16gg\	.	.
.	16b-\	.	16bb-\	.	.
.	16g\JJ	.	16eee-\JJ	.	.
8d/	16d\LL	.	16ggg\LL	.	.
.	16g\	.	16eee-\	.	.
4ryy	16b-\	.	16bb-\	.	.
.	16ee-\	.	16gg\	.	.
.	16b-\	.	16bb-\	.	.
.	16g\JJ)	.	16eee-\JJ	.	.
=133	=133	=133	=133	=133	=133
!	!	!	!	!	!LO:HP:b=2:t=poco a poco dim.
(>8d/	16d\LL	.	16ggg\LL	.	>
.	16g\	.	16eee-\	.	.
4ryy	16b-\	.	16bb-\	.	.
.	16ee-\	.	16gg\	.	.
.	16b-\	.	16bb-\	.	.
.	16g\JJ	.	16eee-\JJ	.	.
8e-/	16e-\LL	.	16ggg\LL	.	.
.	16g\	.	16eee-\	.	.
4ryy	16b-\	.	16bb-\	.	.
.	16ee-\	.	16gg\	.	.
.	16b-\	.	16bb-\	.	.
.	16g\JJ	.	16eee-\JJ)	.	.
=134	=134	=134	=134	=134	=134
16c/LL	8c\	.	(<16eee-/LL	.	.
16e-/	.	.	16bb-/	.	.
16g/	4ryy	.	16gg/	.	.
16cc/	.	.	16ee-/	.	.
16g/	.	.	16gg/	.	.
16e-/JJ	.	.	16bb-/JJ	.	.
16B-/LL	8B-\	.	16eee-/LL	.	.
16e-/	.	.	16bb-/	.	.
16g/	4ryy	.	16gg/	.	.
16b-/	.	.	16ee-/	.	.
16g/	.	.	16gg/	.	.
16e-/JJ)	.	.	16bb-/JJ	.	.
*v	*v	*	*	*	*
!!LO:LB:g=original
=135	=135	=135	=135	=135
*^	*	*	*	*
*xywh-10:508,1695,2511,705	*xywh-10:508,1695,2511,705	*	*xywh-10:508,1695,2511,705	*	*
(<16B-/LL	8B-\	.	16eee-/LL	.	.
16e-/	.	.	16bb-/	.	.
16g/	4ryy	.	16gg/	.	.
16b-/	.	.	16ee-/	.	.
16g/	.	.	16gg/	.	.
16e-/JJ	.	.	16bb-/JJ	.	.
16c/LL	8c\	.	16eee-/LL	.	.
16e-/	.	.	16bb-/	.	.
16g/	4ryy	.	16gg/	.	.
16cc/	.	.	16ee-/	.	.
16g/	.	.	16gg/	.	.
16e-/JJ	.	.	16bb-/JJ)	.	.
*v	*v	*	*	*	*
*	*	*X8va	*	*
=136	=136	=136	=136	=136
*^	*	*	*	*
*xywh-10:508,1695,2511,705	*xywh-10:508,1695,2511,705	*	*xywh-10:508,1695,2511,705	*	*
16A-X/LL	8A-\	.	(>16bb-\LL	.	.
16B-/	.	.	16gg\	.	.
16e-/	4ryy	.	16ee-\	.	.
16a-X/	.	.	16b-\	.	.
16e-/	.	.	16ee-\	.	.
16B-/JJ	.	.	16gg\JJ	.	.
16G/LL	8G\	.	16bb-\LL	.	.
16B-/	.	.	16gg\	.	.
16e-/	4ryy	.	16ee-\	.	.
16g/	.	.	16b-\	.	.
16e-/	.	.	16ee-\	.	.
*Xped	*	*	*	*	*
!LO:TX:a:t=P:problem=w źródle dolna fermata odwrócona i zapisana pod pięciolinią	!	!	!	!	!
16B-/JJ)	.	.	16gg\JJ)	.	.
*clefF4	*	*	*	*	*
*v	*v	*	*	*	*
=137||;	=137||	=137||;	=137||	=137||
*k[b-e-a-d-g-]	*	*k[b-e-a-d-g-]	*	*
*^	*	*	*	*
*xywh-10:508,1695,2511,705	*xywh-10:508,1695,2511,705	*	*xywh-10:508,1695,2511,705	*	*
!	!	!	!	!	!LO:DY:b=2
*ped	*	*	*	*	*
(>8G-/	16G-\LL	.	(>16bb-\LL	.	pp
.	16B-\	.	16gg-\	.	.
!	!LO:TX:b:i=2:t=(2de Pédale)	!	!	!	!
4ryy	16d-\	.	16dd-\	.	.
.	16g-\	.	16b-\	.	.
.	16d-\	.	16dd-\	.	.
.	16B-\JJ	.	16gg-\JJ	.	.
8A-/	16A-\LL	.	16bb-\LL	.	.
.	16B-\	.	16gg-\	.	.
4ryy	16d-\	.	16dd-\	.	.
.	16g-\	.	16b-\	.	.
.	16d-\	.	16dd-\	.	.
.	16B-\JJ	.	16gg-\JJ	.	.
!!LO:LB:g=original
=138	=138	=138	=138	=138	=138
*xywh-10:508,2401,2511,642	*xywh-10:508,2401,2511,642	*	*xywh-10:508,2401,2511,642	*	*
8E-/	16E-\LL	.	16bb-\LL	.	.
.	16G-\	.	16gg-\	.	.
4ryy	16B-\	.	16dd-\	.	.
.	16e-\	.	16b-\	.	.
.	16B-\	.	16dd-\	.	.
.	16G-\JJ	.	16gg-\JJ	.	.
8D-/	16D-\LL	.	16bb-\LL	.	.
.	16G-\	.	16gg-\	.	.
4ryy	16B-\	.	16dd-\	.	.
.	16d-\	.	16b-\	.	.
.	16B-\	.	16dd-\	.	.
.	16G-\JJ)	.	16gg-\JJ	.	.
=139	=139	=139	=139	=139	=139
(>8G-/	16G-\LL	.	16bb-\LL	.	.
.	16B-\	.	16gg-\	.	.
4ryy	16d-\	.	16dd-\	.	.
.	16g-\	.	16b-\	.	.
.	16d-\	.	16dd-\	.	.
.	16B-\JJ	.	16gg-\JJ	.	.
8A-/	16A-\LL	.	16bb-\LL	.	.
.	16B-\	.	16gg-\	.	.
4ryy	16d-\	.	16dd-\	.	.
.	16a-\	.	16b-\	.	.
.	16B-\	.	16dd-\	.	.
.	16G-\JJ	.	16gg-\JJ	.	.
=140	=140	=140	=140	=140	=140
8E-/	16E-\LL	.	16gg-\LL	.	.
.	16G-\	.	16dd-\	.	.
4ryy	16B-\	.	16b-\	.	.
.	16e-\	.	16g-\	.	.
.	16B-\	.	16b-\	.	.
.	16G-\JJ	.	16dd-\JJ	.	.
8D-/	16D-\LL	.	16gg-\LL	.	.
.	16G-\	.	16dd-\	.	.
4ryy	16B-\	.	16b-\	.	.
.	16d-\	.	16g-\	.	.
.	16B-\	.	16b-\	.	.
.	16G-\JJ)	.	16dd-\JJ)	.	.
*v	*v	*	*	*	*
!!LO:LB:g=original
=141||	=141||	=141||	=141||	=141||
*xywh-10:508,3043,2560,642	*	*xywh-10:508,3043,2560,642	*	*
*M2/4	*	*M2/4	*	*
!LO:TX:a:i:t=leggiero	!	!	!	!
*ped	*	*	*	*
!LO:TX:a:t=P:problem=łuk pomiędzy pięcioliniami, obejmujący 2 grupy 32	!	!	!	!
32D-\LLL	.	8r	.	.
32G-\	.	.	.	.
32B-\	.	.	.	.
32d-\JJJ	.	.	.	.
8r	.	32e-/LLL	.	.
.	.	32g-/	.	.
.	.	32b-/	.	.
.	.	32ee-/JJJ	.	.
!LO:TX:a:t=P:problem=łuk pomiędzy pięcioliniami, obejmujący 2 grupy 32	!	!	!	!
32E-\LLL	.	8r	.	.
32G-\	.	.	.	.
32B-\	.	.	.	.
32e-\JJJ	.	.	.	.
8r	.	32g-\LLL	.	.
.	.	32b-\	.	.
.	.	32dd-\	.	.
.	.	32gg-\JJJ	.	.
=142	=142	=142	=142	=142
!LO:TX:a:t=P:problem=łuk pomiędzy pięcioliniami, obejmujący 2 grupy 32	!	!	!	!
(32G-\LLL	.	8r	.	.
32B-\	.	.	.	.
32d-\	.	.	.	.
32g-\JJJ	.	.	.	.
8r	.	32b-\LLL	.	.
.	.	32dd-\	.	.
.	.	32gg-\	.	.
.	.	32bb-\JJJ)	.	.
*clefG2	*	*	*	*
!LO:TX:a:t=P:problem=łuk pomiędzy pięcioliniami, obejmujący 2 grupy 32	!	!	!	!
(32B-/LLL	.	8r	.	.
32d-/	.	.	.	.
32g-/	.	.	.	.
32b-/JJJ	.	.	.	.
8r	.	32dd-\LLL	.	.
.	.	32gg-\	.	.
.	.	32bb-\	.	.
.	.	32ddd-\JJJ)	.	.
=143	=143	=143	=143	=143
!LO:TX:a:t=P:problem=łuk pomiędzy pięcioliniami, obejmujący 2 grupy 32	!	!	!	!
(32d-/LLL	.	8r	.	.
32g-/	.	.	.	.
32b-/	.	.	.	.
32dd-/JJJ	.	.	.	.
8r	.	32ee-\LLL	.	.
.	.	32gg-\	.	.
.	.	32bb-\	.	.
.	.	32eee-\JJJ	.	.
!LO:TX:a:t=P:problem=łuk pomiędzy pięcioliniami, obejmujący 2 grupy 32	!	!	!	!
32e-/LLL	.	8r	.	.
32g-/	.	.	.	.
32b-/	.	.	.	.
32ee-/JJJ	.	.	.	.
8r	.	32gg-\LLL	.	.
.	.	32bb-\	.	.
.	.	32ddd-\	.	.
.	.	32ggg-\JJJ	.	.
!!LO:PB:g=original
=144	=144	=144	=144	=144
*xywh-11:330,450,2398,585	*	*xywh-11:330,450,2398,585	*	*
!LO:TX:a:t=P:problem=łuk pomiędzy pięcioliniami, obejmujący 2 grupy 32	!	!	!	!
(32g-\LLL	.	8r	.	.
32b-\	.	.	.	.
32dd-\	.	.	.	.
32gg-\JJJ	.	.	.	.
*	*	*8va	*	*
8r	.	32bb-\LLL	.	.
.	.	32ddd-\	.	.
.	.	32ggg-\	.	.
.	.	32bbb-\JJJ	.	.
*Xtuplet	*	*X8va	*	*
!LO:TX:a:t=P:problem=łuk pomiędzy pięcioliniami, obejmujący 2 grupy 32	!	!	!	!
(40b-\LLL	.	8r	.	.
40dd-\	.	.	.	.
40ee-\	.	.	.	.
40gg-\	.	.	.	.
40bb-\JJJ	.	.	.	.
*	*	*Xtuplet	*	*
*	*	*8va	*	*
8r	.	40ddd-\LLL	.	.
.	.	40eee-\	.	.
.	.	40ggg-\	.	.
.	.	40bbb-\	.	.
.	.	40dddd-\JJJ	.	.
*	*	*X8va	*	*
=145	=145	=145	=145	=145
!	!	!	!	!LO:DY::t=sempre pp
4r	.	4r	.	pp
*	*	*8va	*	*
8gg-:: 8dd-:: 8b-:: 8g-::\	.	8bbb-:: 8ggg-:: 8ddd-:: 8bb-::\	.	.
8r	.	8r	.	.
=146	=146	=146	=146	=146
4r	.	4r	.	.
8bb-:: 8gg-: 8ee-: 8dd-: 8b-:\	.	8dddd-:: 8bbb-: 8ggg-: 8eee-: 8ddd-:\	.	.
*	*	*X8va	*	*
8r	.	8r	.	.
=147	=147	=147	=147	=147
4r	.	4r	.	.
8g-:: 8d-: 8B-: 8G-:/	.	8bb-:: 8gg-: 8dd-: 8b-:\	.	.
8r	.	8r	.	.
=148	=148	=148	=148	=148
4r	.	4r	.	.
8b-:: 8g-: 8e-: 8d-: 8B-:/	.	8ddd-:: 8bb-: 8gg-: 8ee-: 8dd-:\	.	.
8r	.	8r	.	.
=149	=149	=149	=149	=149
4r	.	4r	.	.
8g-:: 8d-: 8B-: 8G-:/	.	8bb-:: 8gg-: 8dd-: 8b-:\	.	.
8r	.	8r	.	.
=150	=150	=150	=150	=150
*	*	*^	*	*
*	*	*	*xywh-11:330,450,2398,585	*	*
4r	.	4r	4ryy	.	.
8b-:: 8g-: 8e-: 8d-: 8B-:/	.	8ddd-:: 8bb-: 8gg-: 8ee-:/	[<4dd-^:\	.	.
8r	.	8rgg	.	.	.
!!LO:LB:g=original
=151	=151	=151	=151	=151	=151
*xywh-11:330,1035,2498,575	*	*xywh-11:330,1035,2498,575	*xywh-11:330,1035,2498,575	*	*
2r	.	2r	2dd-\_>	.	.
=152	=152	=152	=152	=152	=152
4r	.	4ryy	4dd-\]	.	.
8b-:: 8g-: 8e-: 8d-: 8B-:/	.	8ddd-:: 8bb-: 8gg-: 8ee-:/	[>4dd-\	.	.
*Xped	*	*	*	*	*
8r;	.	8r;	.	.	.
*	*	*v	*v	*	*
=153||	=153||	=153||	=153||	=153||
*M6/8	*	*M6/8	*	*
!	!	!LO:TX:a:t=Tempo I.	!	!LO:DY:t=p espressivo
2.r	.	4dd-\]	.	p
!	!	!	!	!LO:HP:a
.	.	(>8dd-\	.	>
.	.	8b-/L	.	.
.	.	8a-/	.	.
.	.	8g-/J)	.	]]
=154	=154	=154	=154	=154
2.r	.	4r	.	.
.	.	(<8a-/	.	.
.	.	4.e-/)	.	.
=155	=155	=155	=155	=155
2.r	.	4r	.	.
.	.	(<8a-/	.	>
.	.	4e-/	.	.
.	.	8qg-/	.	.
.	.	8f/	.	.
=156	=156	=156	=156	=156
2.r	.	4.e-/	.	.
.	.	4.d-/)	.	]]
=157	=157	=157	=157	=157
2.r	.	4r	.	.
.	.	(<8d-/	.	<
.	.	4g-/	.	.
.	.	8a-/	.	.
!!LO:LB:g=original
=158	=158	=158	=158	=158
*xywh-11:330,1611,2498,650	*	*xywh-11:330,1611,2498,650	*	*
4r	.	4b-/	.	.
8r	.	8a-/	.	.
4r	.	4g-/	.	.
*clefF4	*	*	*	*
8An 8C\	.	8ee- 8g-/)	.	[
=159	=159	=159	=159	=159
*	*	*^	*	*
*	*	*	*xywh-11:330,1611,2498,650	*	*
2.An 2.C\	.	(>[>4.ee-/	4.g-\	.	f
.	.	4ee-/]	4f\	.	.
.	.	8een/	8en</	.	.
*	*	*v	*v	*	*
=160	=160	=160	=160	=160
*ped	*	*	*	*
4.FF/	.	4.ff: 4.e-X:\	.	.
!	!	!	!	!LO:HP:a
(>4gn 4e- 4B-\	.	4.cc\)	.	>]
*Xped	*	*	*	*
.	.	.	.	.
8f 8An\)	.	.	.	.
*kcancel	*	*kcancel	*	*
=161||	=161||	=161||	=161||	=161||
*k[b-e-]	*	*k[b-e-]	*	*
!	!	!LO:TX:a:t=Meno mosso.	!	!
*ped	*	*	*	*
4BB- 4BBB-/	.	4.dd: 4.b-: 4.f: 4.d:/	.	pp
[8B-\	.	.	.	.
*ped	*	*	*	*
4.c:: 4.B-:] 4.G: 4.E-:\	.	4.gg:: 4.ee-: 4.b-: 4.g:\	.	.
=162	=162	=162	=162	=162
*ped	*	*	*	*
4BB- 4BBB-/	.	(>16ff:LL 16b-: 16f:\	.	.
.	.	16ee-\	.	.
.	.	16dd\	.	.
.	.	16f\	.	.
[8B-\	.	16b-\	.	.
.	.	16dd\JJ)	.	.
*ped	*	*	*	*
4.c:: 4.B-:] 4.G: 4.E-:\	.	4.gg:: 4.ee-: 4.b-: 4.g:\	.	.
!!LO:LB:g=original
=163	=163	=163	=163	=163
*xywh-11:330,2262,2468,696	*	*xywh-11:330,2262,2468,696	*	*
*ped	*	*	*	*
4BB- 4BBB-/	.	(>16ff:LL 16b-: 16f:\	.	.
.	.	16ee-\	.	.
.	.	16dd\	.	.
.	.	16f\	.	.
(>8c\	.	16b-\	.	.
.	.	16dd\JJ)	.	.
4d 4B- 4F\)	.	(>16bb-\LL	.	.
.	.	16gg\	.	.
.	.	16ff\	.	.
.	.	16b-\	.	.
(>8g\	.	16dd\	.	.
.	.	16ff\JJ)	.	.
=164	=164	=164	=164	=164
4f 4d 4B-\)	.	(>16ddd\LL	.	.
.	.	16ccc\	.	.
.	.	16bb-\	.	.
.	.	16dd\	.	.
*clefG2	*	*	*	*
(>8cc\	.	16ff\	.	.
.	.	16bb-\JJ)	.	.
4b- 4f 4d/)	.	(>16fff\LL	.	.
.	.	16eee-\	.	.
.	.	16ddd\	.	.
.	.	16ff\	.	.
(>8ee-\	.	16bb-\	.	.
.	.	16ddd\JJ)	.	.
=165	=165	=165	=165	=165
4dd 4b- 4f/)	.	(>16fff\LL	.	>
.	.	16eee-\	.	.
.	.	16ddd\	.	.
.	.	16ff\	.	.
(>8ee-\	.	16bb-\	.	.
.	.	16ddd\JJ	.	.
4dd 4b- 4f/)	.	16fff\LL	.	.
.	.	16eee-\	.	.
.	.	16ddd\	.	.
.	.	16ff\	.	.
(>8ee-\	.	16bb-\	.	.
.	.	16ddd\JJ	.	.
!!LO:LB:g=original
=166	=166	=166	=166	=166
*xywh-11:340,2958,2458,666	*	*xywh-11:340,2958,2458,666	*	*
4dd 4b- 4f/)	.	16fff\LL	.	.
.	.	16eee-\	.	.
.	.	16ddd\	.	.
.	.	16ff\	.	.
(>8ee-\	.	16bb-\	.	.
.	.	16ddd\JJ	.	.
4dd 4b- 4f/)	.	16fff\LL	.	.
.	.	16eee-\	.	.
.	.	16ddd\	.	.
.	.	16ff\	.	.
(>8ee-\	.	16bb-\	.	.
.	.	16ddd\JJ	.	]]
=167	=167	=167	=167	=167
4dd 4b- 4f/)	.	8bbb-'\)	.	.
.	.	8r	.	.
*clefF4	*	*	*	*
*ped	*	*	*	*
(<8BBB-/	.	(>8ee-\	.	p
!	!	!LO:TX:a:i:t=cantando	!	!
[<4.BB-/)	.	4dd 4b- 4f/	.	.
.	.	8ee-\	.	.
=168	=168	=168	=168	=168
4BB-/]	.	4dd 4b- 4f/	.	.
*Xped	*	*	*	*
(>8BB-/	.	8ee-\	.	.
*ped	*	*	*	*
[>4.B-\)	.	4cc 4a-X 4e-/	.	.
.	.	8dd\	.	.
=169	=169	=169	=169	=169
4B-\]	.	4cc 4a-X 4e-/	.	.
*Xped	*	*	*	*
8BB-/	.	8dd\	.	.
*ped	*	*	*	*
[>4.B-\	.	4b- 4g 4d/	.	.
.	.	8cc\	.	.
=170	=170	=170	=170	=170
4.B-\]	.	4b- 4g 4d/	.	.
*Xped	*	*	*	*
.	.	8cc\	.	.
*clefG2	*	*	*	*
*ped	*	*	*	*
4an 4e- 4c/	.	4r	.	.
8b-\	.	8r)	.	.
!!LO:PB:g=original
=171	=171	=171	=171	=171
*xywh-12:548,466,2461,615	*	*xywh-12:548,466,2461,615	*	*
(>4a 4e- 4c/	.	4r	.	.
*Xped	*	*	*	*
8b-/	.	(>8ddd 8dd^\	.	.
*ped	*	*	*	*
4g 4d 4B-/	.	8bb-\L	.	.
.	.	8aa\	.	.
8a/)	.	8gg\J)	.	.
*Xped	*	*	*	*
=172	=172	=172	=172	=172
(>4g 4d 4B-/	.	4r	.	.
8a/	.	(>8aa 8a\	.	.
*ped	*	*	*	*
4f#X 4c 4A/	.	4.ee-\)	.	.
8g/	.	.	.	.
=173	=173	=173	=173	=173
*	*	*^	*	*
*	*	*	*xywh-12:548,466,2461,615	*	*
4f#X 4c 4A/	.	4r	4ryy	.	.
*Xped	*	*	*	*	*
!	!	!	!	!	!LO:HP:a
8g/	.	(>8aa/	8a\	.	>
*ped	*	*	*	*	*
4e- 4B- 4G/	.	4ee-/	[<4.b-\	.	.
.	.	8qgg/	.	.	.
8fn/	.	8ff/	.	.	.
*clefF4	*	*	*	*	*
=174	=174	=174	=174	=174	=174
4e- 4B- 4G\	.	4.ee-/	4b-\]	.	.
*Xped	*	*	*	*	*
8f\	.	.	8g\	.	.
*ped	*	*	*	*	*
4d 4A 4F#X\	.	4.dd/)	4.a\	.	]
8c#X\)	.	.	.	.	.
*	*	*v	*v	*	*
=175	=175	=175	=175	=175
(>4e- 4A 4F#X\	.	4r	.	>
*Xped	*	*	*	*
!	!	!	!	!LO:HP:a
8d\	.	(>8dd\	.	>
*ped	*	*	*	*
4d 4G 4E-\	.	4.g/)	.	] ]]
8c\	.	.	.	.
!!LO:LB:g=original
=176	=176	=176	=176	=176
*xywh-12:526,1082,2484,629	*	*xywh-12:526,1082,2484,629	*	*
4d 4G 4E-\	.	4r	.	.
*Xped	*	*	*	*
!	!	!	!	!LO:HP:a
8c\	.	8cc\	.	>
*ped	*	*	*	*
4c 4G 4D\	.	4.g/	.	]
8B-\	.	.	.	.
=177	=177	=177	=177	=177
4B- 4G 4D\	.	4r	.	.
*Xped	*	*	*	*
!	!	!	!	!LO:HP:a
8c\	.	(<8a/	.	>
*ped	*	*	*	*
4A 4E- 4C\	.	4e-/	.	.
.	.	8qg/	.	.
8B-\	.	8f/	.	.
=178	=178	=178	=178	=178
4A 4E- 4C\	.	4.e-/	.	.
*Xped	*	*	*	*
8B-\	.	.	.	.
*ped	*	*	*	*
4G 4D 4BB-\	.	[<4.d/)	.	]
8A\	.	.	.	.
=179	=179	=179	=179	=179
!	!	!LO:N:vis=4..	!	!LO:HP:t=cresc. ed accelerando
4G 4D 4BB-\	.	4d/_y	.	<
*Xped	*	*	*	*
8A\	.	16d/]yy	.	.
.	.	16dd\	.	.
*ped	*	*	*	*
!	!	!LO:N:vis=4..	!	!
4F#X 4C 4AA/	.	[y4dd [y4d^>/	.	.
8G\	.	16dd]yy 16d/]yy	.	.
.	.	16ddd 16dd\	.	.
=180	=180	=180	=180	=180
!	!	!LO:N:vis=4..	!	!
*ped	*	*	*	*
4E- 4BB- 4GG/	.	[y4ddd [y4dd^\	.	.
8Fn\	.	16ddd]yy 16dd\]yy	.	.
*	*	*8va	*	*
.	.	16dddd 16ddd\	.	.
*Xped	*	*	*	*
4D 4AA 4FF#X/	.	4dddd 4ddd\	.	.
*	*	*X8va	*	*
8E-\)	.	8r	.	.
!!LO:LB:g=original
=181	=181	=181	=181	=181
*xywh-12:526,1711,2488,660	*	*xywh-12:526,1711,2488,660	*	*
!	!	!LO:N:vis=4..	!	!
*ped	*	*	*	*
(>4E- 4BB- 4GG/	.	4r	.	.
8Fn\	.	16r	.	.
.	.	16dd 16d/	.	.
!	!	!LO:N:vis=4..	!	!
*ped	*	*	*	*
4D 4AA 4FF#X/	.	[y4dd [y4d^>/	.	.
8E-\)	.	16dd]yy 16d/]yy	.	.
.	.	16ddd 16dd\	.	.
=182	=182	=182	=182	=182
*ped	*	*	*	*
!	!	!LO:N:vis=4..	!	!
(>4E- 4BB- 4GG/	.	[y4ddd [y4dd^\	.	.
8Fn\	.	16ddd]yy 16dd\]yy	.	.
*	*	*8va	*	*
.	.	16dddd 16ddd\	.	.
*ped	*	*	*	*
4D 4AA 4FF#X/	.	4dddd 4ddd\	.	.
*	*	*X8va	*	*
8E-\)	.	8r	.	.
=183	=183	=183	=183	=183
*ped	*	*	*	*
(>4E- 4BB- 4GG/	.	(>16e-/LL	.	f <
.	.	16d/	.	.
.	.	16dd/	.	.
.	.	16dd/	.	.
8F\	.	16ee-/	.	.
.	.	16dd/JJ	.	.
*ped	*	*	*	*
4D 4AA 4FF#X/	.	16ddd\LL	.	.
.	.	16ddd\	.	.
.	.	16eee-\	.	.
.	.	16ddd\J)	.	.
*	*	*8va	*	*
8E-\)	.	8dddd'\J	.	[ sf
*	*	*X8va	*	*
=184	=184	=184	=184	=184
*ped	*	*	*	*
(>4E- 4BB- 4GG/	.	(>16e-/LL	.	<
.	.	16d/	.	.
.	.	16dd/	.	.
.	.	16dd/	.	.
8F\	.	16ee-/	.	.
.	.	16dd/JJ	.	.
*ped	*	*	*	*
4D 4AA 4FF#X/	.	16ddd\LL	.	.
.	.	16ddd\	.	.
.	.	16eee-\	.	.
.	.	16ddd\J)	.	.
*	*	*8va	*	*
8E-\)	.	8dddd'\J	.	[ sf
*	*	*X8va	*	*
!!LO:LB:g=original
=185	=185	=185	=185	=185
*xywh-12:526,2372,2488,629	*	*xywh-12:526,2372,2488,629	*	*
*ped	*	*	*	*
(>4E- 4BB- 4GG/	.	(>16e-/LL	.	<
.	.	16d/	.	.
.	.	16dd/	.	.
.	.	16dd/	.	.
8F\	.	16ee-/	.	.
.	.	16dd/JJ	.	.
*ped	*	*	*	*
4D 4AA 4FF#X/	.	16ddd\LL	.	.
.	.	16ddd\	.	.
.	.	16eee-\	.	.
.	.	16ddd\	.	.
*	*	*8va	*	*
8E-\)	.	16dddd\	.	[ sf
.	.	16ddd\JJ)	.	.
*	*	*X8va	*	*
=186	=186	=186	=186	=186
*	*	*tremolo	*	*
2.r	.	(>16eee-^\LL	.	.
.	.	16ddd\	.	.
.	.	16eee-\	.	.
.	.	16ddd\	.	.
.	.	16eee-\	.	.
.	.	16ddd\	.	.
.	.	16eee-\	.	.
.	.	16ddd\	.	.
.	.	16eee-\	.	.
.	.	16ddd\	.	.
.	.	16eee-\	.	.
.	.	16ddd\JJ)	.	.
=187	=187	=187	=187	=187
*^	*	*	*	*
*	*xywh-12:526,2372,2488,629	*	*	*	*
!LO:TX:a:i:t=m.g.	!	!	!	!	!
!LO:TX:a:t=P:tremolo:problem	!	!	!	!	!
(>16ee->^>\LL	2.r	.	2.rbb	.	.
16dd>\	.	.	.	.	.
16ee->\	.	.	.	.	.
16dd>\	.	.	.	.	.
16ee->\	.	.	.	.	.
16dd>\	.	.	.	.	.
16ee->\	.	.	.	.	.
16dd>\	.	.	.	.	.
16ee->\	.	.	.	.	.
16dd>\	.	.	.	.	.
16ee->\	.	.	.	.	.
16dd>\JJ)	.	.	.	.	.
*v	*v	*	*	*	*
=188	=188	=188	=188	=188
!	!	!LO:TX:a:i:t=m.d.	!	!
2.r	.	(<16e-^/LL	.	.
.	.	16d/	.	.
.	.	16e-/	.	.
.	.	16d/	.	.
.	.	16e-/	.	.
.	.	16d/	.	.
.	.	16e-/	.	.
.	.	16d/	.	.
.	.	16e-/	.	.
.	.	16d/	.	.
.	.	16e-/	.	.
.	.	16d/JJ	.	.
=189	=189	=189	=189	=189
*	*	*	*	*^
!	!	!	!	!LO:DY:a	!LO:HP:a:t=dim. e rit.
2.r	.	16e-/LL	.	>	>
.	.	16d/	.	.	.
.	.	16e-/	.	.	.
.	.	16d/	.	.	.
.	.	16e-/	.	.	.
.	.	16d/	.	.	.
.	.	16e-/	.	.	.
.	.	16d/	.	.	.
.	.	16e-/	.	.	.
.	.	16d/	.	.	.
.	.	16e-/	.	.	.
.	.	16d/JJ	.	.	.
=190	=190	=190	=190	=190	=190
2.r	.	16e-/LL	.	.	.
.	.	16d/	.	.	.
.	.	16e-/	.	.	.
.	.	16d/	.	.	.
.	.	16e-/	.	.	.
.	.	16d/	.	.	.
.	.	16e-/	.	.	.
.	.	16d/	.	.	.
.	.	16e-/	.	.	.
.	.	16d/	.	.	.
.	.	16e-/	.	.	.
.	.	16d/JJ)	.	]]	.
*	*	*Xtremolo	*	*	*
*	*	*	*	*v	*v
!!LO:LB:g=original
=191	=191	=191	=191	=191
*	*	*^	*	*
*xywh-12:526,3001,2520,651	*	*xywh-12:526,3001,2520,651	*xywh-12:526,3001,2520,651	*	*
!	!	!LO:TX:a:t=Tempo I.	!	!	!
*ped	*	*	*	*	*
4GG/	.	(>16e-/LL	16ryy	.	.
.	.	16d/	16d\	.	.
.	.	16e-/	4ryy	.	pp
.	.	16d/	.	.	.
(>8D\	.	16e-/	.	.	.
.	.	16d/JJ	.	.	.
4.B- 4.G\)	.	16en/LL	16en\	.	.
.	.	16d/	16ryy	.	.
.	.	16e/	8ryy	.	.
.	.	16d/	.	.	.
.	.	16f#X/	16f#\	.	.
*Xped	*	*	*	*	*
.	.	16e/JJ	16ryy	.	.
=192	=192	=192	=192	=192	=192
*ped	*	*	*	*	*
4EE-/	.	16a/	16a\LL	.	.
.	.	4ryy	16f#X\	.	.
.	.	.	16a\	.	.
.	.	.	16f#\	.	.
[8E-\	.	.	16a\	.	.
.	.	16g/	16g\JJ	.	.
4.c 4.E-\]	.	16b-/	16b-\LL	.	.
.	.	8.ryy	16a\	.	.
.	.	.	16b-\	.	.
*Xped	*	*	*	*	*
.	.	.	16a\	.	.
.	.	16cc/	16cc\	.	.
.	.	16ryy	16b-\JJ	.	.
=193	=193	=193	=193	=193	=193
*ped	*	*	*	*	*
(>4BB-/	.	16dd/	16dd\LL)	.	.
.	.	16ryy	(>16f#X\	.	.
.	.	2ryy	16g\	.	.
.	.	.	16b-\	.	.
8F#X\	3	.	16dd\	.	.
.	.	.	16ddd\JJ	.	.
4G\	2	.	16ff#X\LL	.	.
.	.	.	16gg\	.	.
.	.	.	16bb-\	.	.
.	.	.	16ddd\	.	.
*	*	*v	*v	*	*
*	*	*8va	*	*
*	*	*^	*	*
*	*	*	*xywh-12:526,3001,2520,651	*	*
8d\	1	8ryy	16dddd\	.	.
.	.	.	16ddd\JJ	.	.
*	*	*v	*v	*	*
*	*	*X8va	*	*
!!LO:PB:g=original
=194	=194	=194	=194	=194
*	*	*^	*	*
*xywh-13:325,373,2390,605	*	*xywh-13:325,373,2390,605	*xywh-13:325,373,2390,605	*	*
4.g\)	.	2ryy	16gg\LL	.	.
.	.	.	16bb-\	.	.
.	.	.	16gg\	.	.
.	.	.	16dd\	.	.
*	*	*X8va	*X8va	*	*
.	.	.	16bb-\	.	.
.	.	.	16ff#X\JJ	.	.
!LO:N:vis=4	!	!	!	!	!
4.r	.	.	16gg\LL	.	.
.	.	.	16bb-\	.	.
.	.	8ryy	16gg\	.	.
.	.	.	16dd\JJ)	.	.
.	.	8r	8b-\	.	mf
*	*	*v	*v	*	*
=195	=195	=195	=195	=195
4r	.	4r	.	.
*clefG2	*	*	*	*
*	*	*8va	*	*
[>8bb- 8ff#X\	.	(>8dddd 8fff#X 8ddd\	.	pp
4bb-] 4gg\	.	4bbb- 4ggg\)	.	.
*	*	*X8va	*	*
[>8b- 8g/	.	8ddd 8ff# 8dd\	.	.
=196	=196	=196	=196	=196
4b-] 4g/	.	4bb- 4gg\	.	.
8r	.	8r	.	.
*Xped	*	*	*	*
4r	.	4r	.	.
8r	.	8r	.	.
*clefF4	*	*	*	*
=197	=197	=197	=197	=197
*	*	*	*	*^
*ped	*	*	*	*	*
4BB-/	.	4r	.	.	.
!	!	!	!	!LO:HP:a	!
(>8En\	.	(>8f#X/	.	<	.
4.d 4.G\)	.	4g/	.	.	.
*Xped	*	*	*	*	*
.	.	8cc\	.	.	<
=198	=198	=198	=198	=198	=198
*ped	*	*	*	*	*
4AA/	.	4b-\	.	.	.
(>[<8A\	.	8a/	.	.	.
4.g 4.c#X 4.A\])	.	4dd#X\	.	.	.
*Xped	*	*	*	*	*
.	.	.	.	.	.
.	.	8een\)	.	[[	.
*	*	*	*	*v	*v
!!LO:LB:g=original
=199	=199	=199	=199	=199
*	*	*^	*	*
*xywh-13:325,978,2426,609	*	*xywh-13:325,978,2426,609	*xywh-13:325,978,2426,609	*	*
*ped	*	*	*	*	*
4DD/	.	(>4.ffn/	4g#X\	.	f
8D\	.	.	8a\	.	.
4.f 4.G#X^\	.	4cc#X^/	4.b-\	.	.
*Xped	*	*	*	*	*
.	.	8dd/)	.	.	.
*	*	*v	*v	*	*
=200	=200	=200	=200	=200
4f 4A\	.	(>4.ff 4.a\	.	.
*clefG2	*	*	*	*
*ped	*	*	*	*
[<8d/	.	.	.	.
*Xped	*	*	*	*
4.b- 4.d^/_<	.	4ccc#X 4gg#X 4ff\	.	.
.	.	8ddd\)	.	.
=201	=201	=201	=201	=201
4a 4d/]	.	(>4fff 4aa 4ff\	.	.
8r	.	8gg#X\	.	.
4r	.	4aa\	.	.
8r	.	8eeen\	.	.
=202	=202	=202	=202	=202
2.r	.	4ddd\	.	.
.	.	8een\	.	.
.	.	4ff\	.	.
.	.	8ccc\	.	.
=203	=203	=203	=203	=203
2.r	.	4bb-\	.	.
.	.	8cc#X\	.	.
.	.	4dd\	.	.
.	.	8aa\	.	.
=204	=204	=204	=204	=204
2.r	.	4gg\	.	.
.	.	8ff\	.	>
.	.	4gg\	.	.
.	.	8ff\)	.	]]
!!LO:LB:g=original
*clefF4	*	*	*	*
=205	=205	=205	=205	=205
*xywh-13:336,1588,2415,624	*	*xywh-13:336,1588,2415,624	*	*
*	*above	*	*	*
*ped	*	*	*	*
8BBB-/	.	(>4gg 4cc 4a-X\	.	p
!	!	!LO:TX:b:i:t=dolce	!	!
(>16e-X\LL	2	.	.	.
16f\	1	.	.	.
16e-\	2	8ff\	.	.
16c\JJ	1	.	.	.
!	!	!	!	!LO:HP:a
16B-\LL	2	4cc 4a-\	.	<
16A-X\	3	.	.	.
16F\	1	.	.	.
16E-\	2	.	.	.
*Xped	*	*	*	*
16C\	3	8dd\	.	.
16BB-\JJ	4	.	.	.
=206	=206	=206	=206	=206
*ped	*	*	*	*
16C\LL	3	4ff 4b- 4g\	.	[
!	!	!	!	!LO:HP:a
16E-\	2	.	.	>
16G\	1	.	.	.
16B-\	4	.	.	.
16c\	3	[>8ee-\	.	.
16e-\JJ	2	.	.	.
8g'\)	1	8ee-\L]	.	.
*Xped	*	*	*	*
.	.	.	.	.
4r	.	8dd\	.	]
.	.	8cc\J)	.	.
=207	=207	=207	=207	=207
*	*	*^	*	*
*	*	*	*xywh-13:336,1588,2415,624	*	*
*ped	*	*	*	*	*
8BBB-/	.	(>4dd/	4.a-X 4.f-X\	.	.
(16c\LL	2	.	.	.	.
16d\	1	.	.	.	.
16c\	2	8cc/	.	.	.
16B-\JJ	3	.	.	.	.
!	!	!	!	!	!LO:HP:a
16c\LL	1	4g/	4.e-\	.	<
16B-\	2	.	.	.	.
16G\	1	.	.	.	.
16E-\	2	.	.	.	.
16C\	3	8an/	.	.	.
*Xped	*	*	*	*	*
[16BB-\JJ	4	.	.	.	.
=208	=208	=208	=208	=208	=208
*ped	*	*	*	*	*
16BB-\LL]	.	4cc/ 4d/	4ryy	.	[
!	!	!	!	!	!LO:HP:a
16D\	2	.	.	.	>
16G\	1	.	.	.	.
16F\	5	.	.	.	.
16B-\	3	[>8b-/	8r	.	.
16d\JJ	2	.	.	.	.
8f'\)	1	8b-/L]	4r	.	.
4r	.	8a/	.	.	.
*Xped	*	*	*	*	*
.	.	8g/J)	8r	.	]
!!LO:LB:g=original
=209	=209	=209	=209	=209	=209
*xywh-13:336,2212,2466,678	*	*xywh-13:336,2212,2466,678	*xywh-13:336,2212,2466,678	*	*
!	!	!LO:TX:b:i:t=scherzando	!	!	!LO:HP:a
(>4Entt\	.	(>4a/	4.c#X\	.	>
8BB-'/)	.	[>8g/	.	.	.
*ped	*	*	*	*	*
8BBB-'/	.	8g/L]	4.d\	.	.
4r	.	8f/	.	.	.
*Xped	*	*	*	*	*
.	.	8b-/J)	.	.	]
=210	=210	=210	=210	=210	=210
!	!	!	!	!	!LO:HP:a
(>4Entt\	.	(>4a/	4.c#X\	.	>
8BB-'/)	.	[8g/	.	.	.
*ped	*	*	*	*	*
8BBB-'/	.	8g/L]	4.d\	.	.
4r	.	8f/	.	.	.
*Xped	*	*	*	*	*
.	.	8b-/J)	.	.	]
*	*	*v	*v	*	*
=211	=211	=211	=211	=211
*^	*	*	*	*
*	*xywh-13:336,2212,2466,678	*	*	*	*
*ped	*	*	*	*	*
4ryy	[>2.A [>2.E-X [<2.BB-\	.	(>16c/LL	.	pp
.	.	.	16g/	.	.
.	.	.	16f/	.	.
.	.	.	16cc/JJ	.	.
16b->\LL	.	.	8rbb	.	.
16ee->\JJ	.	.	.	.	.
4ryy	.	.	16cc/LL	.	.
.	.	.	16gg/	.	.
.	.	.	16ff/	.	.
.	.	.	16ccc/JJ	.	.
16bb->\LL	.	.	8rfff	.	.
16eee->\JJ	.	.	.	.	.
=212	=212	=212	=212	=212	=212
4ryy	2.A] 2.E-] 2.BB-\]	.	16cccc/LL	.	.
.	.	.	16fff/	.	.
.	.	.	16ggg/	.	.
.	.	.	16ccc/JJ	.	.
16eee->\LL	.	.	8raaa	.	.
16bb->\JJ	.	.	.	.	.
4ryy	.	.	16ccc/LL	.	.
.	.	.	16ff/	.	.
.	.	.	16gg/	.	.
.	.	.	16cc/JJ	.	.
16ee->\LL	.	.	8rbb	.	.
*Xped	*	*	*	*	*
16b->\JJ	.	.	.	.	.
*v	*v	*	*	*	*
!!LO:LB:g=original
=213	=213	=213	=213	=213
*	*	*^	*	*
*xywh-13:314,2891,2488,715	*	*xywh-13:314,2891,2488,715	*xywh-13:314,2891,2488,715	*	*
!	!	!	!	!	!LO:HP:a
(>4Entt\	.	(>4a-X/)	4.c#X\	.	>
8BB-'/)	.	[>8g/	.	.	.
*ped	*	*	*	*	*
8BBB-'/	.	8g/L]	4.d\	.	.
4r	.	8f/	.	.	.
.	.	8b-/J)	.	.	]
=214	=214	=214	=214	=214	=214
!	!	!	!	!	!LO:HP:a
(>4Entt\	.	(>4a-X/	4.c#X\	.	>
8BB-'/)	.	[>8g/	.	.	.
*ped	*	*	*	*	*
8BBB-'/	.	8g/L]	4.d\	.	.
4r	.	8f/	.	.	.
.	.	8b-/J)	.	.	]
*	*	*v	*v	*	*
=215	=215	=215	=215	=215
*^	*	*	*	*
*	*xywh-13:314,2891,2488,715	*	*	*	*
*ped	*	*	*	*	*
!	!	!	!LO:TX:a:t=P:problem=łuk obejmujący całe 2 takty	!	!
4ryy	[>2.G-X [>2.E- [<2.AA-X\	.	16c/LL	.	.
.	.	.	16a-X/	.	.
.	.	.	16g-X/	.	.
.	.	.	16cc/JJ	.	.
16b->\LL	.	.	8ryy	.	.
16ee->\JJ	.	.	.	.	.
4ryy	.	.	16cc/LL	.	.
.	.	.	16aa-X/	.	.
.	.	.	16gg-X/	.	.
.	.	.	16ccc/JJ	.	.
16bb->\LL	.	.	8ryy	.	.
16eee->\JJ	.	.	.	.	.
=216	=216	=216	=216	=216	=216
4ryy	2.G-] 2.E-] 2.AA-\]	.	16cccc/LL	.	.
.	.	.	16ggg-X/	.	.
.	.	.	16aaa-X/	.	.
.	.	.	16ccc/JJ	.	.
16eee->\LL	.	.	8ryy	.	.
16bb->\JJ	.	.	.	.	.
4ryy	.	.	16ccc/LL	.	.
.	.	.	16gg-X/	.	.
.	.	.	16aa-X/	.	.
.	.	.	16cc/JJ	.	.
16ee->\LL	.	.	8ryy	.	.
*Xped	*	*	*	*	*
16b->\JJ	.	.	.	.	.
!!LO:PB:g=original
*clefG2	*	*	*	*	*
*v	*v	*	*	*	*
=217	=217	=217	=217	=217
*	*	*8va	*	*
*^	*	*	*	*
*xywh-14:489,416,2515,618	*xywh-14:489,416,2515,618	*	*xywh-14:489,416,2515,618	*	*
!	!	!	!	!	!LO:HP:t=cresc. molto
*ped	*	*	*	*	*
4g-X/	[<2.A-X\	.	(>16cccc\LL	.	<
.	.	.	16ggg-X\	.	.
.	.	.	16aaa-X\	.	.
.	.	.	16ccc\	.	.
8d/	.	.	16eee-\	.	.
.	.	.	16bb-\JJ	.	.
*	*	*	*X8va	*	*
4e-/	.	.	16ccc\LL	.	.
.	.	.	16gg-\	.	.
.	.	.	16bb-\	.	.
.	.	.	16gg-\	.	.
8f/	.	.	16aa-\	.	.
.	.	.	16cc\JJ)	.	.
*v	*v	*	*	*	*
=218	=218	=218	=218	=218
*	*	*8va	*	*
*^	*	*	*	*
*	*xywh-14:489,416,2515,618	*	*	*	*
(>4g-X/	2.A-\]	.	(>16cccc\LL	.	.
.	.	.	16ggg-X\	.	.
.	.	.	16aaa-X\	.	.
.	.	.	16ccc\	.	.
8d/	.	.	16eee-\	.	.
.	.	.	16bb-\JJ	.	.
*	*	*	*X8va	*	*
4e-/	.	.	16ccc\LL	.	.
.	.	.	16gg-\	.	.
.	.	.	16bb-\	.	.
.	.	.	16gg-\	.	.
8f/	.	.	16aa-\	.	.
*Xped	*	*	*	*	*
.	.	.	16cc\JJ)	.	.
*v	*v	*	*	*	*
=219	=219	=219	=219	=219
*	*	*8va	*	*
*^	*	*	*	*
*	*xywh-14:489,416,2515,618	*	*	*	*
*ped	*	*	*	*	*
4g-X/	[<2.A-X\	.	(>16bbb-\LL	.	.
.	.	.	16ggg-X\	.	.
.	.	.	16aaa-X\	.	.
.	.	.	16ccc\	.	.
8d/	.	.	16eee-\	.	.
.	.	.	16bb-\JJ	.	.
*	*	*	*X8va	*	*
4e-X/	.	.	16ccc\LL	.	.
.	.	.	16gg-\	.	.
.	.	.	16bb-\	.	.
.	.	.	16gg-\	.	.
8f/	.	.	16aa-\	.	.
*Xped	*	*	*	*	*
.	.	.	16cc\JJ)	.	.
*v	*v	*	*	*	*
=220	=220	=220	=220	=220
*	*	*8va	*	*
*^	*	*	*	*
*	*xywh-14:489,416,2515,618	*	*	*	*
*ped	*	*	*	*	*
4g-X/	2.A-\]	.	(>16aaa-X\LL	.	.
.	.	.	16fff\	.	.
.	.	.	16ggg-X\	.	<
.	.	.	16ccc\	.	.
8d/	.	.	16eee-\	.	.
.	.	.	16bb-\JJ	.	.
*	*	*	*X8va	*	*
8e-^</L	.	.	16ccc\LL	.	.
.	.	.	16gg-\	.	.
8f^</	.	.	16bb-\	.	.
.	.	.	16gg-\	.	.
8f#X^</J)	.	.	16aa-\	.	.
*Xped	*	*	*	*	*
.	.	.	16cc\JJ)	.	[[
*v	*v	*	*	*	*
!!LO:LB:g=original
*clefF4	*	*	*	*
=221||	=221||	=221||	=221||	=221||
*xywh-14:489,1035,2524,641	*	*xywh-14:489,1035,2524,641	*	*
*k[]	*	*k[]	*	*
*ped	*	*	*	*
4GG 4GGG/	.	4r	.	ff
(>8e 8G\	.	(>8ggg 8eee 8ccc 8gg\	.	.
4g) 4c\	.	8eeeL 8ee\	.	.
.	.	8ddd 8dd\	.	.
*Xped	*	*	*	*
8r	.	8cccJ) 8cc\	.	.
=222	=222	=222	=222	=222
*ped	*	*	*	*
4GG 4GGG/	.	4r	.	.
(>8d 8G\	.	(>8ddd 8aa 8dd\	.	.
4.f#X) 4.c\	.	4.aa) 4.a\	.	.
*Xped	*	*	*	*
.	.	.	.	.
=223	=223	=223	=223	=223
*ped	*	*	*	*
4GG 4GGG/	.	4r	.	.
(>8B 8Fn\	.	(>8ddd 8aa 8dd\	.	.
4fn 4G\	.	4aa 4a\	.	.
.	.	8qccc 8qcc/	.	.
8c#X\)	.	8bb 8b\	.	.
=224	=224	=224	=224	=224
*^	*	*^	*	*
*	*xywh-14:489,1035,2524,641	*	*xywh-14:489,1035,2524,641	*	*	*
(>8c#X/L	2.F\	.	4.aa 4.a/	8cc#X\L	.	.
8e/	.	.	.	8ee\	.	.
8d/J	.	.	.	8dd\J	.	.
8B/L	.	.	4.gg) 4.g/	8b\L	.	.
8A/	.	.	.	8a\	.	.
8G/J)	.	.	.	8g\J	.	.
*v	*v	*	*	*	*	*
*	*	*v	*v	*	*
=225	=225	=225	=225	=225
*ped	*	*	*	*
4Cn 4CCn/	.	4r	.	<
(>8c 8E\	.	(>8gg 8ee 8cc 8g\	.	.
8eL 8G\	.	4ccc 4cc\	.	.
*Xped	*	*	*	*
.	.	.	.	.
8f\	.	.	.	.
8f#X\J)	.	8ddd 8dd\	.	[[
!!LO:LB:g=original
=226	=226	=226	=226	=226
*xywh-14:516,1676,2497,663	*	*xywh-14:516,1676,2497,663	*	*
*ped	*	*	*	*
4FF#X 4FFF#X/	.	4eee 4ccc 4aa 4ee\	.	.
*clefG2	*	*	*	*
(>8g#X 8e 8c/	.	8ddd 8dd\	.	.
8a/L	.	4ccc 4cc\	.	.
8b/	.	.	.	.
*Xped	*	*	*	*
8cc/J)	.	8aaa) 8aa\	.	.
*clefF4	*	*	*	*
=227	=227	=227	=227	=227
*ped	*	*	*	*
4GG 4GGG/	.	4aaa 4aa\	.	.
!	!	!	!	!LO:HP:a
(>8c#X 8A 8F\	.	(>8cc#X 8a 8f/	.	<
8e\L)	.	8ee\L)	.	.
(>8d 8A 8F\	.	(>8dd 8a 8f\	.	.
*Xped	*	*	*	*
8f\J	.	8ff\J	.	.
=228	=228	=228	=228	=228
8e\L)	.	(>8ee\L)	.	.
!	!	!	!	!LO:HP:a
(>8d 8G 8F\	.	8dd 8g 8f\	.	[ >
8cn\J	.	8ccn\J	.	.
8B\L	.	8b\L	.	.
8A\	.	8a\	.	.
8G\J)	.	8ggJ 8g\)	.	]]
=229	=229	=229	=229	=229
!	!	!	!	!LO:DY:t=sempre ff
*ped	*	*	*	*
4C 4CC/	.	4r	.	ff
(>8e 8G\	.	(>8bbb-X 8ddd 8bb-X\	.	.
8fL 8B-X\	.	8gggL 8gg\	.	.
8f#X\	.	8fffn 8ffn\	.	.
8g\J	.	8eeeJ) 8ee\	.	.
!!LO:LB:g=original
*clefG2	*	*	*	*
=230	=230	=230	=230	=230
*xywh-14:516,2340,2546,654	*	*xywh-14:516,2340,2546,654	*	*
4b-X 4d/	.	4r	.	.
8a 8c/	.	(>8ggg 8gg\	.	.
4g 4B-X/	.	4.ddd) 4.dd\	.	.
*Xped	*	*	*	*
.	.	.	.	.
8f#X 8A/	.	.	.	.
=231	=231	=231	=231	=231
4a 4c/	.	4r	.	.
8g 8B-X/	.	(>8ggg 8gg\	.	.
4fn 4A/	.	4ddd 4dd\	.	.
.	.	8qfff 8qff/	.	.
8e) 8G/	.	8eee 8ee\	.	.
*clefF4	*	*	*	*
=232	=232	=232	=232	=232
*^	*	*^	*	*
*	*xywh-14:516,2340,2546,654	*	*xywh-14:516,2340,2546,654	*	*	*
*ped	*	*	*	*	*	*
4.ryy	8B-XL 8BB-X\	.	4.ddd 4.dd/	8ff#X\L	.	.
!	!LO:TX:a:t=P:problem=łuk od 8a do 8c	!	!	!	!	!
.	8a (<8B-\	.	.	8aa\	.	.
.	8g\J	.	.	8gg\J	.	.
8e/L	4.B-\)	.	4.ccc) 4.cc/	8ee\L	.	.
*Xped	*	*	*	*	*	*
8d/	.	.	.	8dd\	.	.
8c/J	.	.	.	8cc\J	.	.
*v	*v	*	*	*	*	*
*	*	*v	*v	*	*
=233	=233	=233	=233	=233
*ped	*	*	*	*
4A 4AA\	.	4r	.	.
(>8f 8A\	.	(>8ccc 8ffn 8cc\	.	.
4a) 4c\	.	8eeeL 8ee\	.	<
.	.	8fff 8ff\	.	.
*Xped	*	*	*	*
8r	.	8gggJ 8gg\	.	.
=234	=234	=234	=234	=234
*	*	*8va	*	*
*ped	*	*	*	*
4F 4FF/	.	4aaa 4ccc 4aa\	.	.
*clefG2	*	*	*	*
8a (<8c/	.	8ggg 8gg\	.	.
4cc) 4f/	.	4fff 4ff\	.	.
*Xped	*	*	*	*
8r	.	8cccc 8ccc\	.	[[
!!LO:LB:g=original
*clefF4	*	*	*	*
=235	=235	=235	=235	=235
*xywh-14:529,2995,2533,722	*	*xywh-14:529,2995,2533,722	*	*
*ped	*	*	*	*
4FF#X 4FFF#X/	.	4cccc^>) 4aaa 4eee 4ccc\	.	.
*	*	*X8va	*	*
(>8c 8E\	.	(>8cc 8e/	.	.
8dL 8A\	.	8ddL 8a\	.	.
8e 8c\	.	8ee 8cc\	.	.
8dJ 8A\	.	8ddJ 8a\	.	.
=236	=236	=236	=236	=236
4c 4E\	.	4cc 4e/	.	.
8d 8A\	.	8dd 8a\	.	.
4e 4c\	.	4ee 4cc\	.	.
*	*	*8va	*	*
8F#X) 8FF#X/	.	8cccc) 8aaa 8eee 8ccc\	.	.
*Xped	*	*	*	*
.	.	.	.	.
=237	=237	=237	=237	=237
*ped	*	*	*	*
4BB 4BBB/	.	4bbb 4ggg 4ddd#X 4bb\	.	.
*	*	*X8va	*	*
(>8d#X 8G\	.	(>8gg 8b\	.	.
4g) 4B\	.	4bb) 4dd#\	.	.
*Xped	*	*	*	*
8r	.	(>8aaa 8aa\	.	.
=238	=238	=238	=238	=238
*ped	*	*	*	*
4C 4CC/	.	4ggg 4bb 4gg\	.	.
(>8e 8G\	.	8fff 8ff\	.	.
*Xped	*	*	*	*
.	.	.	.	.
4g) 4B-X\	.	4eee 4bb-X 4ee\	.	.
8C#X (<8CC#X/	.	8ggg 8gg\	.	.
=239	=239	=239	=239	=239
*ped	*	*	*	*
4D 4DD/)	.	4fff 4aa 4ff\	.	.
(>8d 8F\	.	8eee 8ee\	.	.
*Xped	*	*	*	*
4f) 4A\	.	4ddd 4dd\	.	.
8E (<8EE/	.	8eee 8ccc 8gg#X 8ee\	.	.
!!LO:PB:g=original
=240	=240	=240	=240	=240
*xywh-15:338,435,2406,667	*	*xywh-15:338,435,2406,667	*	*
*ped	*	*	*	*
4F 4FF/)	.	4ddd 4bb 4dd\	.	.
(>8e\	.	8ccc 8cc\	.	.
*ped	*	*	*	*
4.c) 4.F#X\	.	4bb 4ee 4b\	.	.
.	.	8ccc) 8cc\	.	.
=241	=241	=241	=241	=241
*^	*	*^	*	*
*	*xywh-15:338,435,2406,667	*	*xywh-15:338,435,2406,667	*	*	*
*ped	*	*	*	*	*	*
8DL 8DD/	8ryy	.	(>[>4.ddd/	8dd\L	.	.
*clefG2	*	*	*	*	*	*
(>8b/	[<4d\	.	.	8bb\	.	.
*Xped	*	*	*	*	*	*
8b-X/J	.	.	.	8bb-X\J	.	.
8a/L	4d\]	.	4ddd/]	8aa\L	.	.
8a-X/	.	.	.	8aa-X\	.	.
8g/J	8Bn\	.	8ggg) 8ddd/	8gg\J	.	.
*	*	*	*v	*v	*	*
=242	=242	=242	=242	=242	=242
8e/L	4G#X\	.	(>4eee 4ccc 4ee\	.	.
8fn/	.	.	.	.	.
8f#X/J)	8A\	.	8ddd 8bbn 8dd\	.	.
8an/	8c\	.	8cccL 8aan 8cc\	.	.
8r	4ryy	.	8bb 8gg#X 8b\	.	.
8r	.	.	8cccJ) 8aa 8cc\	.	.
*clefF4	*	*	*	*	*
=243	=243	=243	=243	=243	=243
*	*	*	*^	*	*
*	*	*	*	*xywh-15:338,435,2406,667	*	*
*ped	*	*	*	*	*	*
8D 8DD\	8ryy	.	(>[>4.ddd/	8dd\L	.	.
*clefG2	*	*	*	*	*	*
(>8b/L	[<4d\	.	.	8bb\	.	.
8b-X/J	.	.	.	8bb-X\J	.	.
*Xped	*	*	*	*	*	*
8a/L	4d\]	.	4ddd/]	8aa\L	.	.
8a-X/	.	.	.	8aa-X\	.	.
8g/J	8Bn\	.	8ggg) 8ddd/	8gg\J	.	.
*	*	*	*v	*v	*	*
!!LO:LB:g=original
=244	=244	=244	=244	=244	=244
*xywh-15:338,1102,2456,632	*xywh-15:338,1102,2456,632	*	*xywh-15:338,1102,2456,632	*	*
8e/L	4G#X\	.	(>4eee 4ccc 4ee\	.	.
8f/	.	.	.	.	.
8f#X/J)	8A\	.	8ddd 8bbn 8dd\	.	.
8a/	8c\	.	8cccL 8aa 8cc\	.	.
8r	4ryy	.	8bb 8gg#X 8b\	.	.
8r	.	.	8cccJ) 8aa 8cc\	.	.
=245	=245	=245	=245	=245	=245
8e/L	4G#X\	.	(>4eee 4ccc 4ee\	.	>
8fn/	.	.	.	.	.
!	!	!	!LO:TX:a:i:t=rit.	!	!
8f#X/J	8A\	.	8ddd 8bb 8dd\	.	.
8a/	8c\	.	8cccL 8aa 8cc\	.	.
8r	4ryy	.	8bb 8gg#X 8b\	.	.
8r	.	.	8cccJ) 8aa 8cc\	.	]
*v	*v	*	*	*	*
*clefF4	*	*	*	*
=246||	=246||	=246||	=246||	=246||
*k[f#]	*	*k[f#]	*	*
!	!	!LO:TX:a:i:t=a tempo	!	!
*ped	*	*	*	*
4D 4DD/	.	4r	.	p
(>8d 8G\	.	(>16ddd\LL	.	.
.	.	16dd\	.	.
4g) 4B\	.	16bb\	.	.
.	.	16ff#\	.	.
.	.	16aa\	.	.
.	.	16dd\	.	.
8r	.	16gg\	.	.
*Xped	*	*	*	*
.	.	16b\JJ)	.	.
=247	=247	=247	=247	=247
*ped	*	*	*	*
4D 4DD/	.	4r	.	.
(>8c 8E-X\	.	(>16aa\LL	.	.
.	.	16cc\	.	.
4e-X) 4F#\	.	16ee-X\	.	.
.	.	16b-X\	.	.
.	.	16cc\	.	.
.	.	16a\	.	.
8r	.	16b-\	.	.
.	.	16f#\JJ)	.	.
!!LO:LB:g=original
=248	=248	=248	=248	=248
*xywh-15:338,1735,2456,627	*	*xywh-15:338,1735,2456,627	*	*
4D 4DD/	.	4r	.	.
(>8c 8E-X\	.	(>16aa\LL	.	.
.	.	16cc\	.	.
4e-X) 4F#\	.	16ee-X\	.	.
.	.	16b-X\	.	.
.	.	16cc\	.	.
.	.	16a\	.	.
*Xped	*	*	*	*
8r	.	16b-\	.	.
.	.	16f#\JJ	.	.
=249	=249	=249	=249	=249
*	*	*	*below	*
*ped	*	*	*	*
4DD/	.	16bn/LL	4	.
.	.	16a/	3	.
.	.	16f#/	2	.
.	.	16d/	1	.
(>8c 8D\	.	16f#/	2	.
.	.	16a/JJ	1	.
*	*	*	*above	*
4d) 4F#\	.	16b\LL	2	.
.	.	16cc\	3	.
.	.	16dd\	1	.
.	.	16ff#\J	.	.
8r	.	8ddd'\J)	.	.
*Xped	*	*	*	*
.	.	.	.	.
=250	=250	=250	=250	=250
*ped	*	*	*	*
4GG/	.	4r	.	.
(>8B 8D\	.	(>16d\LL	.	.
.	.	16dd\	.	.
4G\)	.	16e\	.	.
.	.	16ee\	.	.
!	!	!	!	!LO:HP:a
.	.	16g\	.	<
.	.	16b\	.	.
*Xped	*	*	*	*
8r	.	16f#\	.	.
.	.	16ff#\JJ	.	.
!!LO:LB:g=original
=251	=251	=251	=251	=251
*xywh-15:338,2363,2461,652	*	*xywh-15:338,2363,2461,652	*	*
*ped	*	*	*	*
8CC#X/	.	16g\LL	.	.
.	.	16gg\	.	.
8r	.	16b\	.	.
.	.	16ee\	.	.
(>8e 8G\	.	16a\	.	.
.	.	16aa\JJ	.	.
4f#) 4B\	.	16b\LL	.	.
.	.	16bb\	.	.
.	.	16ee\	.	.
.	.	16gg\	.	.
8r	.	16cc#X\	.	.
*Xped	*	*	*	*
.	.	16ccc#X\JJ	.	[[
*clefG2	*	*	*	*
=252	=252	=252	=252	=252
*	*	*	*xywh-15:338,2363,2461,652	*
4b 4g (<4d/	.	16ddd\LL	.	>
.	.	16dd\	.	.
.	.	16gg\	.	.
.	.	16bb\	.	.
8a 8g 8c#X/)	.	16aa\	.	.
.	.	16ee\JJ	.	.
4b 4g (<4d/	.	16ddd\LL	.	.
.	.	16dd\	.	.
.	.	16gg\	.	.
.	.	16bb\	.	.
8a 8g 8c#X/)	.	16aa\	.	.
.	.	16ee\JJ	.	.
=253	=253	=253	=253	=253
*ped	*	*	*	*
4.b 4.g 4.d/	.	16ddd\LL	.	.
.	.	16dd\	.	] pp
.	.	16gg\	.	.
.	.	16bb\	.	.
.	.	16ddd\	.	.
.	.	16ddd\JJ	.	.
*	*	*8va	*	*
4r	.	8dddd\)	.	.
*	*	*X8va	*	*
.	.	4r	.	.
*Xped	*	*	*	*
8r	.	.	.	.
!!LO:LB:g=original
*clefF4	*	*	*	*
=254	=254	=254	=254	=254
*xywh-15:333,3016,2466,617	*	*xywh-15:333,3016,2466,617	*	*
*ped	*	*	*	*
8GG/	.	4r	.	.
8r	.	.	.	.
(>8e-X 8G\	.	(>16eee-X\LL	.	.
.	.	16ee-X\	.	.
4g) 4B\	.	16bbn\	.	.
.	.	16ee-\	.	.
.	.	16aa\	.	.
.	.	16ee-\	.	.
8r	.	16gg\	.	.
.	.	16b\JJ)	.	.
=255	=255	=255	=255	=255
8GG/	.	4r	.	.
8r	.	.	.	.
(>8e-X 8G\	.	(>16bb\LL	.	.
.	.	16b\	.	.
4g) 4B\	.	16aa\	.	.
.	.	16ee-X\	.	.
.	.	16gg\	.	.
.	.	16b\	.	.
*Xped	*	*	*	*
8r	.	16ee-\	.	.
.	.	16g\JJ)	.	.
=256	=256	=256	=256	=256
*ped	*	*	*	*
8GG/	.	4r	.	.
8r	.	.	.	.
(>8c 8E-X\	.	(>16bb\LL	.	.
.	.	16cc\	.	.
4d) 4G\	.	16aa\	.	.
.	.	16ee-X\	.	.
.	.	16gg\	.	.
.	.	16cc\	.	.
8r	.	16ee-\	.	.
.	.	16g\JJ	.	.
=257	=257	=257	=257	=257
!	!	!	!	!LO:HP:a
8GG/	.	16cc/LL	.	>
.	.	16g/	.	.
8r	.	16e-X/	.	.
.	.	16d/	.	.
(>8c 8E-X\	.	16e-/	.	.
.	.	16g/JJ	.	.
4e-X) 4G\	.	16cc\LL	.	.
.	.	16dd\	.	.
.	.	16ee-X\	.	.
.	.	16gg\J	.	]
*Xped	*	*	*	*
8r	.	8ccc'\J)	.	.
!!LO:PB:g=original
=258	=258	=258	=258	=258
*xywh-16:518,417,2461,620	*	*xywh-16:518,417,2461,620	*	*
*ped	*	*	*	*
8GG/	.	4r	.	.
8r	.	.	.	.
(>8c 8E-X\	.	(>16a-X\LL	.	.
.	.	16aa-X\	.	.
4e-X) 4A-X\	.	16bn\	.	.
.	.	16bb\	.	.
!	!	!	!	!LO:HP:a
.	.	16ee-X\	.	<
.	.	16aa-\	.	.
8r	.	16cc\	.	.
.	.	16ccc\JJ	.	.
=259	=259	=259	=259	=259
8GG/	.	16dd\LL	.	.
.	.	16ddd\	.	.
8r	.	16aa-X\	.	.
.	.	16ccc\	.	.
(>8e-X 8A-X\	.	16ee-X\	.	.
.	.	16eee-X\JJ	.	.
4a-X) 4c\	.	16ffn\LL	.	.
.	.	16fffn\	.	.
.	.	16ccc\	.	[
.	.	16eee-X\	.	.
8r	.	16gg\	.	.
*Xped	*	*	*	*
.	.	16ggg\JJ)	.	.
*clefG2	*	*	*	*
=260	=260	=260	=260	=260
*	*	*8va	*	*
4a-X 4e-X (<4c/	.	(>16aaa-X\LL	.	.
.	.	16aa-X\	.	>
.	.	16ccc\	.	.
.	.	16eee-X\	.	.
8g 8e- 8Bn/)	.	16fffn\	.	.
.	.	16ffn\JJ	.	.
4a- 4e- (<4c/	.	16aaa-\LL	.	.
.	.	16ccc\	.	.
.	.	16eee-\	.	.
.	.	16ggg\	.	.
8g 8e- 8B/)	.	16fff\	.	.
.	.	16ff\JJ	.	]
!!LO:LB:g=original
=261	=261	=261	=261	=261
*xywh-16:518,1038,2467,671	*	*xywh-16:518,1038,2467,671	*	*
*ped	*	*	*	*
4.a-X 4.e-X 4.c/	.	16aaa-X\LL	.	pp
.	.	16aa-X\	.	.
.	.	16ccc\	.	.
.	.	16eee-X\	.	.
.	.	16aaa-\	.	.
.	.	16aaa-\JJ	.	.
4r	.	8aaaa-X\)	.	.
*	*	*X8va	*	*
.	.	4r	.	.
*Xped	*	*	*	*
8r	.	.	.	.
*clefF4	*	*	*	*
=262	=262	=262	=262	=262
*ped	*	*	*	*
8BBn/	.	4r	.	.
8r	.	.	.	.
*clefG2	*	*	*	*
8g#X (<8B/	.	(>16ggg#X\LL	.	mf <
.	.	16gg#X\	.	.
!LO:TX:b:i:t=espressivo	!	!	!	!
4b 4e/	.	16fff#X\	.	.
.	.	16ccc#X\	.	.
.	.	16eee\	.	.
.	.	16gg#\	.	.
8a#X/	.	16ccc#\	.	.
*Xped	*	*	*	*
.	.	16ee\JJ	.	[
=263	=263	=263	=263	=263
*ped	*	*	*	*
4an 4d#X 4B 4A/	.	16ccc#X\LL	.	>
.	.	16dd#X\	.	.
.	.	16ff#\	.	.
.	.	16b\	.	.
8e#X/	.	16dd#\	.	.
.	.	16b\JJ	.	.
*Xped	*	*	*	*
4f#/)	.	16dd#\LL	.	]
.	.	16ff#\	.	.
.	.	16bb\	.	.
.	.	16bb\J	.	.
8r	.	8bbb\J)	.	.
!!LO:LB:g=original
*clefF4	*	*	*	*
=264	=264	=264	=264	=264
*xywh-16:513,1710,2472,661	*	*xywh-16:513,1710,2472,661	*	*
*ped	*	*	*	*
8BB/	.	4r	.	.
8r	.	.	.	.
*clefG2	*	*	*	*
8g#X (<8B/	.	(>16ggg#X\LL	.	.
.	.	16gg#X\	.	<
4b 4e/	.	16fff#X\	.	.
.	.	16ccc#X\	.	.
.	.	16eee\	.	.
.	.	16gg#\	.	.
*Xped	*	*	*	*
8a#X/	.	16ccc#\	.	.
.	.	16ee\JJ	.	[[
=265	=265	=265	=265	=265
*ped	*	*	*	*
4an 4d#X 4B 4A/	.	16ccc#X\LL	.	>
.	.	16dd#X\	.	.
.	.	16ff#\	.	.
.	.	16b\	.	.
8e#X/	.	16dd#\	.	.
.	.	16b\JJ	.	]
4f#/)	.	16dd#\LL	.	.
.	.	16ff#\	.	.
.	.	16bb\	.	.
.	.	16bb\J	.	.
*Xped	*	*	*	*
8r	.	8bbb\J)	.	.
=266	=266	=266	=266	=266
*ped	*	*	*	*
4g 4en 4c (<4G/	.	(>16ccccn\LL	.	p
.	.	16eee\	.	.
.	.	16gggn\	.	.
.	.	16ccc\	.	.
8a/	.	16eee\	.	.
.	.	16gg\JJ	.	.
*ped	*	*	*	*
4e#X 4d#X 4B 4A/	.	16bb\LL	.	.
.	.	16b\	.	.
.	.	16dd#X\	.	.
.	.	16ff#\	.	.
8f#X/)	.	16bb\	.	.
.	.	16bbb\JJ)	.	.
!!LO:LB:g=original
=267	=267	=267	=267	=267
*xywh-16:513,2371,2487,661	*	*xywh-16:513,2371,2487,661	*	*
!	!	!	!	!LO:HP:t=cresc. molto
*ped	*	*	*	*
4g 4en 4c (<4G/	.	(>16cccc\LL	.	<
.	.	16eee\	.	.
.	.	16ggg\	.	.
.	.	16ccc\	.	.
8a/	.	16eee\	.	.
.	.	16gg\JJ	.	.
*ped	*	*	*	*
4e#X 4d#X 4B 4A/	.	16bb\LL	.	.
.	.	16b\	.	.
.	.	16dd#X\	.	.
.	.	16ff#\	.	.
8f#/)	.	16bb\	.	.
.	.	16bbb\JJ)	.	.
=268	=268	=268	=268	=268
*	*	*8va	*	*
(>4g 4e 4c 4G/	.	(>16cccc\LL	.	f
.	.	16ccc\	.	.
.	.	16eee\	.	.
.	.	16ggg\	.	.
8g#X/	.	16bbb\	.	.
.	.	16bb\JJ	.	.
4a/	.	16aaa\LL	.	.
.	.	16aa\	.	.
.	.	16ccc\	.	.
.	.	16eee\	.	.
8b-X\	.	16ggg\	.	.
.	.	16gg\JJ	.	.
*	*	*X8va	*	*
=269	=269	=269	=269	=269
4bn 4d/	.	16ggg\LL	.	.
.	.	16gg\	.	.
.	.	16aa\	.	.
.	.	16ddd\	.	.
[>8cc\)	.	16fffn\	.	.
.	.	16ffn\JJ	.	.
4.cc] 4.g#X 4.e/	.	16eee\LL	.	.
.	.	16ee\	.	.
.	.	16gg#X\	.	.
.	.	16ccc\	.	.
.	.	16ddd\	.	.
.	.	16dd\JJ)	.	.
!!LO:LB:g=original
=270	=270	=270	=270	=270
*^	*	*	*	*
*	*	*	*	*	*^
*xywh-16:508,3033,2492,620	*xywh-16:508,3033,2492,620	*	*xywh-16:508,3033,2492,620	*	*	*
!	!	!	!	!	!	!LO:DY:t=p subito
(>4cc/	2.a-X 2.fn\	.	(>16eee-X\LL	.	.	p
.	.	.	16ee-X\	.	.	.
.	.	.	16aa-X\	.	.	.
.	.	.	16ccc\	.	.	.
!	!	!	!	!	!LO:HP:a	!
8bn/	.	.	16ddd\	.	<	.
.	.	.	16dd\JJ	.	.	.
4cc/	.	.	16eee-\LL	.	.	.
.	.	.	16ee-\	.	.	.
.	.	.	16aa-\	.	.	.
.	.	.	16ccc\	.	.	.
!LO:TX:b=2:i:t=cresc. _ :problem=dynamics with extension lines	!	!	!	!	!	!LO:HP:b=2:t=cresc._:ext=ud
8dd/	.	.	16fffn\	.	.	<
.	.	.	16ffn\JJ	.	.	.
*v	*v	*	*	*	*	*
=271	=271	=271	=271	=271	=271
*	*	*8va	*	*	*
*^	*	*	*	*	*
*xywh-16:508,3033,2492,620	*xywh-16:508,3033,2492,620	*	*xywh-16:508,3033,2492,620	*	*	*
4een/	2.cc 2.a-X\	.	16ggg\LL	.	.	.
.	.	.	16gg\	.	.	.
.	.	.	16ccc\	.	.	.
.	.	.	16eeen\	.	.	.
8ffn/	.	.	16aaa-X\	.	.	.
.	.	.	16aa-X\JJ	.	.	.
4gg/	.	.	16bbbn\LL	.	.	.
.	.	.	16bbn\	.	.	.
.	.	.	16fffn\	.	.	.
.	.	.	16aaa-\	.	.	.
8aa-X/)	.	.	16cccc\	.	.	.
.	.	.	16ccc\JJ)	.	[	[
*	*	*	*	*	*v	*v
*v	*v	*	*	*	*
=272	=272	=272	=272	=272
*^	*	*	*	*
*	*xywh-16:508,3033,2492,620	*	*	*	*
.	(<8qg^^</	.	.	.	.
*ped	*	*	*	*	*
(>4ccc 4aa-X 4ffn\	2.g\)	.	(>16eeeen\LL	.	ff
.	.	.	16eee\	.	.
.	.	.	16aaa-X\	.	.
.	.	.	16cccc\	.	.
8bbn\)	.	.	16dddd\	.	.
.	.	.	16ddd\JJ	.	.
(>4ccc 4aa- 4ff\	.	.	16eeee\LL	.	.
.	.	.	16eee\	.	.
.	.	.	16aaa-\	.	.
.	.	.	16cccc\	.	.
8bb\)	.	.	16dddd\	.	.
.	.	.	16ddd\JJ	.	.
*v	*v	*	*	*	*
!!LO:PB:g=original
=273	=273	=273	=273	=273
*xywh-17:311,376,2436,647	*	*xywh-17:311,376,2436,647	*	*
(>4ccc 4aa-X 4ffn\	.	16eeee\LL	.	.
.	.	16eee\	.	.
.	.	16aaa-X\	.	.
.	.	16cccc\	.	.
8bb\)	.	16dddd\	.	.
.	.	16ddd\JJ	.	.
(>4ccc 4aa- 4ff\	.	16eeee\LL	.	.
.	.	16eee\	.	.
.	.	16aaa-\	.	.
.	.	16cccc\	.	.
8bb\)	.	16dddd\	.	.
*Xped	*	*	*	*
.	.	16ddd\JJ	.	.
=274	=274	=274	=274	=274
*^	*	*	*	*
*	*xywh-17:311,376,2436,647	*	*	*	*
.	(<8qcc^^</	.	.	.	.
*ped	*	*	*	*	*
(>4ccc 4aa-X 4ffn\	2.cc\)	.	16eeee\LL	.	.
.	.	.	16eee\	.	.
.	.	.	16aaa-X\	.	.
.	.	.	16cccc\	.	.
8bb\)	.	.	16dddd\	.	.
.	.	.	16ddd\JJ	.	.
(>4ccc 4aa- 4ff\	.	.	16eeee\LL	.	.
.	.	.	16eee\	.	.
.	.	.	16aaa-\	.	.
.	.	.	16cccc\	.	.
8bb\)	.	.	16dddd\	.	.
*Xped	*	*	*	*	*
.	.	.	16ddd\JJ	.	.
=275	=275	=275	=275	=275	=275
.	(<8qa-X^^</	.	.	.	.
*ped	*	*	*	*	*
(>4ccc 4aa-X 4ffn\	2.a-\)	.	16eeee\LL	.	.
.	.	.	16eee\	.	.
.	.	.	16aaa-X\	.	.
.	.	.	16cccc\	.	.
8bb\)	.	.	16dddd\	.	.
.	.	.	16ddd\JJ	.	.
(>4ccc 4aa- 4ff\	.	.	16eeee\LL	.	.
.	.	.	16eee\	.	.
.	.	.	16aaa-\	.	.
.	.	.	16cccc\	.	.
8bb\)	.	.	16dddd\	.	.
*Xped	*	*	*	*	*
.	.	.	16ddd\JJ	.	.
*v	*v	*	*	*	*
!!LO:LB:g=original
=276	=276	=276	=276	=276
*^	*	*	*	*
*	*xywh-17:322,1023,2425,673	*	*	*	*
.	(<8qg/^^<	.	.	.	.
*v	*v	*	*	*	*
*^	*	*	*	*
*xywh-17:322,1023,2425,673	*xywh-17:322,1023,2425,673	*	*xywh-17:322,1023,2425,673	*	*
*ped	*	*	*	*	*
(>16bbLL 16gg\	2.g\)	.	16eeee\LL	.	.
16ccc\	.	.	16eee\	.	.
16aa 16ffn\	.	.	16aaa\	.	.
16bb\	.	.	16bbb\	.	.
16aa 16ff\	.	.	16dddd\	.	.
16bb\JJ	.	.	16ddd\JJ	.	.
16ggLL 16ee\	.	.	16ggg\LL	.	.
16aa\	.	.	16aaa\	.	.
16gg 16ee\	.	.	16cccc\	.	.
16aa\	.	.	16ccc\	.	.
16ff 16dd\	.	.	16fffn\	.	.
16gg\JJ	.	.	16ggg\JJ	.	.
*v	*v	*	*	*	*
=277	=277	=277	=277	=277
16ffnLL 16dd\	.	16bbb\LL	.	>
16gg\	.	16bb\	.	.
16ee 16cc\	.	16eee\	.	.
16ff\	.	16fffn\	.	.
16ee 16cc\	.	16aaa\	.	.
16ff\JJ	.	16aa\JJ	.	.
16ddLL 16b\	.	16ddd\LL	.	.
16ee\	.	16eee\	.	.
16dd 16b\	.	16ggg\	.	.
16ee\	.	16gg\	.	.
16cc 16a\	.	16ccc\	.	.
16dd\JJ	.	16ddd\JJ	.	.
*	*	*X8va	*	*
=278	=278	=278	=278	=278
16ccLL 16a\	.	16fffn\LL	.	p
16dd\	.	16ffn\	.	.
16b 16g\	.	16ccc\	.	.
16cc\	.	16ddd\	.	.
16b 16g\	.	16eee\	.	.
16cc\JJ	.	16ee\JJ	.	.
16aLL 16fn/	.	16aa\LL	.	.
16b/	.	16bb\	.	.
16a 16f/	.	16ddd\	.	.
16b/	.	16dd\	.	.
16g 16e/	.	16gg\	.	.
16a/JJ	.	16aa\JJ	.	.
!!LO:LB:g=original
=279	=279	=279	=279	=279
*xywh-17:322,1696,2476,625	*	*xywh-17:322,1696,2476,625	*	*
16gLL 16e/	.	16ccc\LL	.	.
16a/	.	16cc\	.	.
16fn 16d/	.	16ffn\	.	.
16g/	.	16gg\	.	.
16f 16d/	.	16bb\	.	.
16g/JJ	.	16b\JJ	.	.
16eLL 16c/	.	16ee\LL	.	.
16f/	.	16ff\	.	.
16e 16c/	.	16aa\	.	.
16f/	.	16a\	.	.
16e 16c/	.	16ee\	.	.
16f/JJ)	.	16ff\JJ)	.	.
=280	=280	=280	=280	=280
*ped	*	*	*	*
16eLL 16c (<16G/	.	(>16aa\LL	.	.
16fn/	.	16a\	.	.
16e 16c/	.	16ee\	.	.
16f/	.	16ffn\	.	.
16e 16c/	.	16aa\	.	.
16f/JJ	.	16a\JJ	.	.
16eLL 16c/	.	16ee\LL	.	.
16f/J	.	16ff\	.	.
8eJ 8c/)	.	16aa\	.	.
.	.	16a\	.	.
16.r	.	16ee\	.	.
.	.	16ff\JJ	.	.
!LO:TX:b:i:t=marcato	!	!	!	!
32c/	.	.	.	.
=281	=281	=281	=281	=281
2.e^>/	.	16aa\LL	.	.
.	.	16a\	.	.
.	.	16ee\	.	.
.	.	16ffn\	.	.
.	.	16aa\	.	.
.	.	16a\JJ	.	.
.	.	16ee\LL	.	.
.	.	16ff\	.	.
.	.	16aa\	.	.
.	.	16a\	.	.
.	.	16ee\	.	.
*Xped	*	*	*	*
.	.	16ff\JJ)	.	.
!!LO:LB:g=original
=282	=282	=282	=282	=282
*xywh-17:293,2322,2506,618	*	*xywh-17:293,2322,2506,618	*	*
*ped	*	*	*	*
16eLL 16c (<16G/	.	(>16aa\LL	.	.
16f#X/	.	16a\	.	.
16e 16c/	.	16ee\	.	.
16f#/	.	16ff#X\	.	.
16e 16c/	.	16aa\	.	.
16f#/JJ	.	16a\JJ	.	.
16eLL 16c/	.	16ee\LL	.	.
16f#/J	.	16ff#\	.	.
8eJ 8c/)	.	16aa\	.	.
.	.	16a\	.	.
16.r	.	16ee\	.	.
.	.	16ff#\JJ	.	.
32b\	.	.	.	.
=283	=283	=283	=283	=283
2.a^>/	.	16aa\LL	.	.
.	.	16a\	.	.
.	.	16ee\	.	.
.	.	16ff#\	.	.
.	.	16aa\	.	.
.	.	16a\JJ	.	.
.	.	16ee\LL	.	.
.	.	16ff#\	.	.
.	.	16aa\	.	.
.	.	16a\	.	.
.	.	16ee\	.	.
*Xped	*	*	*	*
.	.	16ff#\JJ)	.	.
*clefF4	*	*	*	*
=284	=284	=284	=284	=284
*ped	*	*	*	*
!	!	!LO:TX:a:t=P:problem=łuk od 16aa do 56%3AAA	!	!
8GGG/	.	N(>16aaLL 16ff#\	.	pp
.	.	16ee\	.	.
4r	.	16cc\	.	.
.	.	16b\	.	.
.	.	16ee 16cc\	.	.
.	.	16b\JJ	.	.
4r	.	16a/LL	.	.
.	.	16e/	.	.
.	.	16a 16f#/	.	.
.	.	16e/	.	.
8r	.	16c/	.	.
.	.	16B/JJ	.	.
!!LO:LB:g=original
=285	=285	=285	=285	=285
*xywh-17:293,2940,2513,629	*	*xywh-17:293,2940,2513,629	*	*
!	!	!LO:TX:t=P:problem=mixed beam	!	!
8.ryy	.	16eLL 16c\	.	.
.	.	16B\	.	.
.	.	16A\	.	.
16ryy	.	16F#</	.	.
16ryy	.	16E</	.	.
16ryy	.	16C</JJ	.	.
*tuplet	*	*	*	*
56%3BB/LL	.	4.ryy	.	.
56%3AA/	.	.	.	.
56%3FF#/	.	.	.	.
56%3EE/	.	.	.	.
56%3CC/	.	.	.	.
56%3BBB/	.	.	.	.
56%3AAA/JJ	.	.	.	.
=286	=286	=286	=286	=286
!	!	!LO:TX:a:t=P:problem=łuk od 16aaa do 56%3AA	!	!
8GGG/	.	N(>16aaaLL 16fff#\	.	.
.	.	16eee\	.	.
4r	.	16ccc\	.	.
.	.	16bb\	.	.
.	.	16eee 16ccc\	.	.
.	.	16bb\JJ	.	.
4r	.	16aa\LL	.	.
.	.	16ee\	.	.
.	.	16aa 16ff#\	.	.
.	.	16ee\	.	.
8r	.	16cc\	.	.
.	.	16b\JJ	.	.
=287	=287	=287	=287	=287
!	!	!LO:TX:t=P:problem=mixed beam	!	!
8.ryy	.	16eeLL 16cc\	.	.
.	.	16b\	.	.
.	.	16a\	.	.
16ryy	.	16f#</	.	.
16ryy	.	16e</	.	.
16ryy	.	16c</JJ	.	.
56%3B\LL	.	4.ryy	.	.
56%3A\	.	.	.	.
56%3F#\	.	.	.	.
56%3E\	.	.	.	.
56%3C\	.	.	.	.
56%3BB\	.	.	.	.
*Xped	*	*	*	*
.	.	.	.	.
56%3AA\JJ	.	.	.	.
!!LO:LB:g=original
=288	=288	=288	=288	=288
*xywh-18:505,442,2528,574	*	*xywh-18:505,442,2528,574	*	*
!	!	!LO:TX:a:t=P:problem=łuk od 16aaa do 16a	!	!
*ped	*	*	*	*
8GG/	.	N(<16aaaLL 16fff#\	.	.
.	.	16eee\	.	.
4r	.	16ccc\	.	.
.	.	16bb\	.	.
.	.	16eee 16ccc\	.	.
.	.	16bb\JJ	.	.
*clefG2	*	*	*	*
!	!	!LO:TX:t=P:problem=mixed beam	!	!
16aa>\LL	.	16r<	.	.
16ff#/	.	16r	.	.
16ee/	.	4r	.	.
16cc/	.	.	.	.
16b/	.	.	.	.
*Xped	*	*	*	*
16a/JJ	.	.	.	.
=289	=289	=289	=289	=289
!	!	!LO:TX:a:t=P:problem=łuk od 16aaa do 16a	!	!
*ped	*	*	*	*
8g/	.	N(<16aaaLL 16fff#\	.	.
.	.	16eee\	.	.
4r	.	16ccc\	.	.
.	.	16bb\	.	.
.	.	16eee 16ccc\	.	.
.	.	16bb\JJ	.	.
!	!	!LO:TX:t=P:problem=mixed beam	!	!
16aa>\LL	.	16ra<	.	.
16ff#/	.	16r	.	.
16ee/	.	4r	.	.
16cc/	.	.	.	.
16b/	.	.	.	.
*Xped	*	*	*	*
16a/JJ	.	.	.	.
=290	=290	=290	=290	=290
!	!	!LO:TX:a:t=P:problem=łuk od 16aaa- do 16a-	!	!
*ped	*	*	*	*
8g/	.	N(<16aaa-XLL 16fffn\	.	.
.	.	16eee-X\	.	.
4r	.	16ccc\	.	.
.	.	16bb-X\	.	.
.	.	16eee- 16ccc\	.	.
.	.	16bb-\JJ	.	.
!	!	!LO:TX:t=P:problem=mixed beam	!	!
16aa-X>\LL	.	16r<	.	.
16ffn/	.	16r	.	.
16ee-X/	.	4r	.	.
16cc/	.	.	.	.
16b-X/	.	.	.	.
16a-X/JJ	.	.	.	.
!!LO:LB:g=original
=291	=291	=291	=291	=291
*xywh-18:496,1017,2537,701	*	*xywh-18:496,1017,2537,701	*	*
!	!	!LO:TX:a:t=P:problem=łuk od 16aaa- do 56%3g	!	!
8g/	.	N(<16aaa-XLL 16fffn\	.	.
.	.	16eee-X\	.	.
4r	.	16ccc\	.	.
.	.	16bb-X\	.	.
.	.	16eee- 16ccc\	.	.
.	.	16bb-\JJ	.	.
!	!	!LO:TX:t=P:problem=mixed beam	!	!
56%3aa-X>\LL	.	16r<a	.	.
56%3ffn/	.	.	.	.
.	.	16r	.	.
56%3ee-X/	.	.	.	.
.	.	4r	.	.
56%3cc/	.	.	.	.
56%3b-X/	.	.	.	.
56%3a-X/	.	.	.	.
*Xped	*	*	*	*
56%3g/JJ	.	.	.	.
*clefF4	*	*	*	*
=292	=292	=292	=292	=292
!	!	!	!	!LO:DY:t=sempre pp
*ped	*	*	*	*
!LO:TUP:b	!	!	!	!
(>40%3GGG/L	.	4r	.	pp
40%3EE-X/	.	.	.	.
40%3AA-X/	.	.	.	.
40%3C/	.	.	.	.
*	*	*8va	*	*
.	.	(>8eeee-X 8aaa-X 8eee-X\	.	.
40%3E-X/J	.	.	.	.
!LO:TUP:a	!	!	!	!
40%3A-X\L	.	8ccccL 8ccc\	.	.
40%3c\	.	.	.	.
.	.	8bbb-X 8bb-X\	.	.
40%3e-X\	.	.	.	.
*clefG2	*	*	*	*
40%3a-X\	.	.	.	.
.	.	8aaa-J) 8aa-X\	.	.
40%3cc\J	.	.	.	.
=293	=293	=293	=293	=293
!LO:TUP:a	!	!	!	!
40%3ee-X\L	.	4r	.	.
40%3cc\	.	.	.	.
40%3a-X\	.	.	.	.
40%3e-X\	.	.	.	.
.	.	(>8bbb-X 8eee-X 8bb-X\	.	.
*clefF4	*	*	*	*
40%3c\J	.	.	.	.
!LO:TUP:a	!	!	!	!
40%3A-X\L	.	4.eee-) 4.ee-X/	.	.
40%3E-X\	.	.	.	.
40%3C\	.	.	.	.
40%3AA-X\	.	.	.	.
40%3EE-X\J)	.	.	.	.
*	*	*X8va	*	*
!!LO:LB:g=original
=294	=294	=294	=294	=294
*xywh-18:496,1718,2559,642	*	*xywh-18:496,1718,2559,642	*	*
!LO:TUP:b	!	!	!	!
(>40%3GGG/L	.	4r	.	.
40%3EE-X/	.	.	.	.
40%3AA-X/	.	.	.	.
40%3C/	.	.	.	.
.	.	(>8aaa-X 8eee-X 8aa-X\	.	.
40%3E-X/J	.	.	.	.
!LO:TUP:a	!	!	!	!
40%3A-X\L	.	4eee- 4ee-X\	.	.
40%3c\	.	.	.	.
40%3e-X\	.	.	.	.
*clefG2	*	*	*	*
40%3a-X\	.	.	.	.
.	.	8qggg 8qgg/	.	.
.	.	8fffn 8ffn\	.	.
40%3cc\J	.	.	.	.
=295	=295	=295	=295	=295
!LO:TUP:b	!	!	!	!
40%3ee-X/L	.	4.eee-X 4.aa-X\	.	.
40%3cc/	.	.	.	.
40%3a-X/	.	.	.	.
40%3e-X/	.	.	.	.
40%3c/J	.	.	.	.
*clefF4	*	*	*	*
!LO:TUP:b	!	!	!	!
40%3A-X/L	.	8ccc) 8cc\	.	.
40%3E-X/	.	.	.	.
.	.	4r	.	.
40%3C/	.	.	.	.
40%3AA-X/	.	.	.	.
40%3EE-X/J)	.	.	.	.
=296	=296	=296	=296	=296
!LO:TUP:b	!	!	!	!
(>40%3GGG/L	.	4r	.	.
40%3EE-X/	.	.	.	.
40%3AA-X/	.	.	.	.
40%3C/	.	.	.	.
.	.	(>8eee-X 8aa-X 8ee-X\	.	.
40%3E-X/J	.	.	.	.
!LO:TUP:a	!	!	!	!
40%3A\L	.	8cccL 8cc\	.	.
40%3c\	.	.	.	.
.	.	8bb-X 8b-X\	.	.
40%3e-X\	.	.	.	.
*clefG2	*	*	*	*
40%3a-X\	.	.	.	.
.	.	8aa-X\J)	.	.
40%3cc\J	.	.	.	.
!!LO:LB:g=original
=297	=297	=297	=297	=297
*xywh-18:469,2360,2586,615	*	*xywh-18:469,2360,2586,615	*	*
!LO:TUP:b	!	!	!	!
40%3ee-X/L	.	4r	.	.
40%3cc/	.	.	.	.
40%3a-X/	.	.	.	.
40%3e-X/	.	.	.	.
.	.	(>8bb-X 8ee-X 8b-X\	.	.
40%3c/J	.	.	.	.
*clefF4	*	*	*	*
!LO:TUP:b	!	!	!	!
40%3A-X/L	.	4.ee-) 4.e-X/	.	.
40%3E-X/	.	.	.	.
40%3C/	.	.	.	.
40%3AA-X/	.	.	.	.
40%3EE-X/J)	.	.	.	.
=298	=298	=298	=298	=298
!LO:TUP:a	!	!	!	!
(>40%3GGG/L	.	4r	.	.
40%3EE-X/	.	.	.	.
40%3AA-X/	.	.	.	.
40%3C/	.	.	.	.
.	.	(>8aa-X 8ee-X 8a-X\	.	.
40%3E-X/J	.	.	.	.
!LO:TUP:a	!	!	!	!
40%3A-X\L	.	4ee- 4cc\	.	.
40%3c\	.	.	.	.
40%3e-X\	.	.	.	.
*clefG2	*	*	*	*
40%3a-X\	.	.	.	.
.	.	8qgg/	.	.
.	.	8ffn\	.	.
40%3cc\J)	.	.	.	.
=299	=299	=299	=299	=299
40%3r	.	4.ee-X\	.	.
!LO:TUP:b	!	!	!	!
(<40%3cc/L	.	.	.	.
40%3a-X/	.	.	.	.
40%3e-X/	.	.	.	.
40%3c/J	.	.	.	.
*clefF4	*	*	*	*
!LO:TUP:b	!	!	!	!
40%3A-X/L	.	8cc\)	.	.
40%3E-X/	.	.	.	.
.	.	4r	.	.
40%3C/	.	.	.	.
40%3AA-X/	.	.	.	.
*Xped	*	*	*	*
40%3EE-X/J)	.	.	.	.
!!LO:LB:g=original
=300	=300	=300	=300	=300
*xywh-18:469,2975,2627,660	*	*xywh-18:469,2975,2627,660	*	*
*Xtuplet	*	*	*	*
*ped	*	*	*	*
(>40%3AAA/L	.	4r	.	.
40%3EEn/	.	.	.	.
40%3FF#X/	.	.	.	.
40%3AA/	.	.	.	.
.	.	(>8aan 8cc 8an\	.	.
40%3C/J	.	.	.	.
40%3E\L	.	4ee 4cc 4a\	.	.
40%3F#\	.	.	.	.
40%3A\	.	.	.	.
40%3c\	.	.	.	.
.	.	8qgg/	.	.
.	.	8ff# 8cc 8a\	.	.
40%3e\J	.	.	.	.
=301	=301	=301	=301	=301
40%3f#\L	.	4.ee 4.cc 4.a\	.	.
40%3e\	.	.	.	.
40%3c\	.	.	.	.
40%3A\	.	.	.	.
40%3F#\J	.	.	.	.
40%3E/L	.	8cc) 8a\	.	.
40%3C/	.	.	.	.
.	.	4r	.	.
40%3AA/	.	.	.	.
40%3FF#/	.	.	.	.
*Xped	*	*	*	*
.	.	.	.	.
40%3EE/J)	.	.	.	.
=302	=302	=302	=302	=302
*ped	*	*	*	*
(>40%3GGG/L	.	4r	.	.
40%3EE/	.	.	.	.
40%3FF#/	.	.	.	.
40%3AA/	.	.	.	.
.	.	(>8ee 8a 8e/	.	.
40%3C/J	.	.	.	.
16E\LL	.	4b 4a 4e/	.	.
16F#\	.	.	.	.
16A\	.	.	.	.
16c\JJ)	.	.	.	.
.	.	8qdd/	.	.
8r	.	8cc 8a 8e/	.	.
=303	=303	=303	=303	=303
*	*	*^	*	*
*	*	*	*xywh-18:469,2975,2627,660	*	*
*	*	*	*Xtuplet	*	*
!	!	!	!LO:TX:a:t=P:problem=łuk od 40%3e do 8GGG	!	!
40%3ryy	.	4.b/	N(>40%3e\L	.	.
40%3ryy	.	.	40%3c\	.	.
40%3ryy	.	.	40%3A</	.	.
40%3ryy	.	.	40%3F#</	.	.
40%3ryy	.	.	40%3E</J	.	.
16C/LL	.	8a/)	4.ryy	.	.
16AA/	.	.	.	.	.
16FF#/	.	4r	.	.	.
16EE/J	.	.	.	.	.
*Xped	*	*	*	*	*
.	.	.	.	.	.
8GGG/J	.	.	.	.	.
*	*	*v	*v	*	*
!!LO:PB:g=original
=304	=304	=304	=304	=304
*	*	*	*	*^
*xywh-19:318,484,2392,599	*	*xywh-19:318,484,2392,599	*	*	*
!	!	!	!	!LO:HP:a	!LO:HP:b=2
(>16GG\LL	.	(>2.a 2.e (<2.c/	.	>	<
16D\	.	.	.	.	.
16E-X\	.	.	.	.	.
16En\	.	.	.	.	.
16Fn\	.	.	.	.	.
16F#X\JJ	.	.	.	.	.
*Xped	*	*	*	*	*
16A\LL	.	.	.	.	.
16G#X\	.	.	.	.	.
16A\	.	.	.	.	.
16G#\	.	.	.	.	.
16A\	.	.	.	.	.
16G#\JJ	.	.	.	]	[
*	*	*	*	*v	*v
=305	=305	=305	=305	=305
!	!	!	!	!LO:HP:b=2
16Gn\LL	.	4.d) 4.B/)	.	>
16F#\	.	.	.	.
16G\	.	.	.	.
16F#\	.	.	.	.
16G\	.	.	.	.
16F#\JJ	.	.	.	.
16Fn\LL	.	4r	.	.
16E\	.	.	.	.
16E-X\	.	.	.	.
16D\	.	.	.	.
16E-\	.	8r	.	.
16D\JJ)	.	.	.	]
=306	=306	=306	=306	=306
*	*	*	*	*^
!	!	!	!	!LO:HP:a	!LO:HP:b=2
*ped	*	*	*	*	*
(>16GG\LL	.	(>2.a 2.en (<2.c/	.	>	<
16D\	.	.	.	.	.
16E-X\	.	.	.	.	.
16En\	.	.	.	.	.
16Fn\	.	.	.	.	.
16F#X\JJ	.	.	.	.	.
16A\LL	.	.	.	.	.
16G#X\	.	.	.	.	.
16A\	.	.	.	.	.
16G#\	.	.	.	.	[
16A\	.	.	.	.	.
*Xped	*	*	*	*	*
16G#\JJ	.	.	.	]]	.
*	*	*	*	*v	*v
!!LO:LB:g=original
=307	=307	=307	=307	=307
*xywh-19:285,1084,2425,570	*	*xywh-19:285,1084,2425,570	*	*
!	!	!	!	!LO:HP:b=2
16Gn\LL	.	4.d) 4.B/)	.	>
16F#\	.	.	.	.
16G\	.	.	.	.
16F#\	.	.	.	.
16G\	.	.	.	.
16F#\JJ	.	.	.	.
16Fn\LL	.	4r	.	.
16E\	.	.	.	.
16E-X\	.	.	.	.
16D\	.	.	.	.
16E-\	.	8r	.	]]
16D\JJ)	.	.	.	.
=308	=308	=308	=308	=308
!	!	!	!	!LO:HP:b=2
*ped	*	*	*	*
(>16GG\LL	.	(>4.a 4.e (<4.c/	.	<
16E-X\	.	.	.	.
16En\	.	.	.	.
16Fn\	.	.	.	.
16F#X\	.	.	.	.
*Xped	*	*	*	*
16A\JJ	.	.	.	.
16G\LL	.	8d) 8B/)	.	.
!	!	!	!	!LO:HP:b=2
16F#\	.	.	.	[>
16Fn\	.	4r	.	.
16E\	.	.	.	.
16E-X\	.	.	.	.
16D\JJ)	.	.	.	]]
=309	=309	=309	=309	=309
*ped	*	*	*	*
!	!	!	!	!LO:HP:b=2
(>16GG\LL	.	(>4.a 4.e (<4.c/	.	<
16E-X\	.	.	.	.
16En\	.	.	.	.
16Fn\	.	.	.	.
16F#X\	.	.	.	.
*Xped	*	*	*	*
16A\JJ	.	.	.	.
!	!	!	!	!LO:HP:b=2
16G\LL	.	8d) 8B/)	.	[ >
16F#\	.	.	.	.
16Fn\	.	4r	.	.
16E\	.	.	.	.
16E-X\	.	.	.	.
16D\JJ)	.	.	.	]]
!!LO:LB:g=original
=310	=310	=310	=310	=310
*xywh-19:285,1655,2425,632	*	*xywh-19:285,1655,2425,632	*	*
!	!	!	!	!LO:HP:b=2
*ped	*	*	*	*
(>16GG\LL	.	[>2.a [<2.e [<2.c/	.	<[
16D\	.	.	.	.
16E-X\	.	.	.	.
16En\	.	.	.	.
16Fn\	.	.	.	.
16F#X\JJ	.	.	.	.
*Xped	*	*	*	*
16A\LL	.	.	.	.
16G#X\	.	.	.	.
16A\	.	.	.	.
16G#\	.	.	.	.
16A\	.	.	.	.
16G#\JJ	.	.	.	.
=311	=311	=311	=311	=311
!	!	!	!	!LO:HP:b=2
16Gn\LL	.	4.a] 4.e] 4.c/]	.	>
16F#X\	.	.	.	.
16Fn\	.	.	.	.
16E\	.	.	.	.
16E-X\	.	.	.	.
16D\JJ	.	.	.	.
16C#X/LL	.	4r	.	.
16Cn/	.	.	.	.
16BB/	.	.	.	.
16BB-X/	.	.	.	.
16AA/	.	8r	.	.
16AA-X/JJ)	.	.	.	]]
=312	=312	=312	=312	=312
*^	*	*	*	*
*	*xywh-19:285,1655,2425,632	*	*	*	*
8GG\L	[<2.GGG\	.	(>16D</LL	.	pp
.	.	.	16d</	.	.
8FF#X\	.	.	16G</	.	.
.	.	.	16B</	.	.
8FFn\J	.	.	16E</	.	.
.	.	.	16e</JJ	.	.
8EE\L	.	.	16G/LL	.	.
.	.	.	16g/	.	.
8FF\	.	.	16B/	.	.
.	.	.	16d/	.	.
8FF#X\J	.	.	16B/	.	.
.	.	.	16b/JJ	.	.
=313	=313	=313	=313	=313	=313
(>8GG/L	2.GGG\_<	.	16d\LL	.	.
.	.	.	16dd\	.	.
8FF#X/	.	.	16g\	.	.
.	.	.	16b\	.	.
8FFn/J	.	.	16e\	.	.
.	.	.	16ee\JJ	.	.
8EE/L	.	.	16g\LL	.	.
.	.	.	16gg\	.	.
8FF/	.	.	16b\	.	.
.	.	.	16dd\	.	.
8FF#X/J)	.	.	16b\	.	.
.	.	.	16bb\JJ	.	.
!!LO:LB:g=original
=314	=314	=314	=314	=314	=314
*xywh-19:274,2287,2436,669	*xywh-19:274,2287,2436,669	*	*xywh-19:274,2287,2436,669	*	*
(>8GG/L	2.GGG\_<	.	16dd\LL	.	.
.	.	.	16ddd\	.	.
8FF#/	.	.	16gg\	.	.
.	.	.	16bb\	.	.
8FFn/J	.	.	16ee\	.	.
.	.	.	16eee\JJ	.	.
*	*	*	*8va	*	*
8EE/L	.	.	16gg\LL	.	.
.	.	.	16ggg\	.	.
8FF/	.	.	16bb\	.	.
.	.	.	16ddd\	.	.
8FF#X/J)	.	.	16bb\	.	.
.	.	.	16bbb\JJ	.	.
=315	=315	=315	=315	=315	=315
(>8GG/L	2.GGG\_<	.	16ddd\LL	.	.
.	.	.	16dddd\	.	.
8FF#/	.	.	16ggg\	.	.
.	.	.	16bbb\	.	.
8FFn/J	.	.	16eee\	.	.
.	.	.	16eeee\JJ	.	.
8EE/L	.	.	16ddd\LL	.	.
.	.	.	16dddd\	.	.
8FF/	.	.	16ggg\	.	.
.	.	.	16bbb\	.	.
8FF#X/J)	.	.	16ggg\	.	.
.	.	.	16gggg\JJ)	.	.
*v	*v	*	*	*	*
*	*	*X8va	*	*
=316	=316	=316	=316	=316
*^	*	*	*	*
*	*xywh-19:274,2287,2436,669	*	*	*	*
(>8GG/L	2.GGG\_<	.	2.r	.	.
8FF#X/	.	.	.	.	.
8FFn/J	.	.	.	.	.
8EE/L	.	.	.	.	.
8FF/	.	.	.	.	.
8FF#X/J)	.	.	.	.	.
*v	*v	*	*	*	*
=317	=317	=317	=317	=317
*	*	*8va	*	*
*^	*	*	*	*
*	*xywh-19:274,2287,2436,669	*	*	*	*
(>8GG/L	2.GGG\_<	.	(>16ddd\LL	.	.
.	.	.	16dddd\	.	.
8FF#/	.	.	16ggg\	.	.
.	.	.	16bbb\	.	.
8FFn/J	.	.	16ggg\	.	.
.	.	.	16gggg\JJ)	.	.
*	*	*	*X8va	*	*
8EE/L	.	.	4r	.	.
8FF/	.	.	.	.	.
8FF#X/J)	.	.	8r	.	.
!!LO:LB:g=original
=318	=318	=318	=318	=318	=318
*xywh-19:274,2957,2436,724	*xywh-19:274,2957,2436,724	*	*xywh-19:274,2957,2436,724	*	*
(>8GG/L	2.GGG\_<	.	2.r	.	.
8FF#/	.	.	.	.	.
8FFn/J	.	.	.	.	.
8EE/L	.	.	.	.	.
8FF/	.	.	.	.	.
8FF#X/J)	.	.	.	.	.
*v	*v	*	*	*	*
=319	=319	=319	=319	=319
*	*	*8va	*	*
*^	*	*	*	*
*	*xywh-19:274,2957,2436,724	*	*	*	*
(>8GG/L	2.GGG\_<	.	(>16ddd\LL	.	.
.	.	.	16dddd\	.	.
8FF#/	.	.	16ggg\	.	.
.	.	.	16bbb\	.	.
8FFn/J	.	.	16ggg\	.	.
.	.	.	16gggg\JJ)	.	.
*	*	*	*X8va	*	*
8EE/L	.	.	4r	.	.
8FF/	.	.	.	.	.
*Xped	*	*	*	*	*
8FF#X/J)	.	.	8r	.	.
=320	=320	=320	=320	=320	=320
*ped	*	*	*	*	*
8GG/	8GGG\]	.	2.r	.	.
4r	8ryy	.	.	.	.
.	2ryy	.	.	.	.
4r	.	.	.	.	.
8r	.	.	.	.	.
*v	*v	*	*	*	*
=321	=321	=321	=321	=321
8g:: 8d#X: 8B: 8G'\:	.	8bb:: 8gg: 8dd#X: 8b'\:	.	.
4r	.	4r	.	.
4r	.	4r	.	.
8r	.	8r	.	.
=322	=322	=322	=322	=322
!LO:TX:a:t=1	!	!	!	!
2.r	.	2.r	.	.
*Xped	*	*	*	*
=323	=323	=323	=323	=323
*ped	*	*	*	*
8ddn>:: 8b>: 8g>: 8dn: 8G:\	.	8ggg:: 8ddd: 8bb: 8gg'>:/	.	.
4r	.	4r	.	.
4r	.	4r	.	.
8r	.	8r	.	.
=324	=324	=324	=324	=324
8GGG'/	.	2.r;>	.	.
4r	.	.	.	.
4r	.	.	.	.
*Xped	*	*	*	*
8r;>	.	.	.	.
==	==	==	==	==
*-	*-	*-	*-	*-
!!!system-decoration: {(s1,s2)}
!!!RDF**kern: N = linked
!!!RDF**dynam: > = "dim.", 'fontstyle="italic"
!!!RDF**kern: > = above
!!!RDF**kern: < = below
!!!ENC: Andrzej Gręziak
!!!END: 2022-02-15
!!!EED: Antoni Szymański
!!!EEV: 2022-02-18
!!!ENC-iiif: Olaf Gawdzik
!!!END-iiif: 2022-09-02
!!!YEC: Copyright 2022 Narodowy Instytut Fryderyka Chopina (https://polishscores.org)
!!!YEM: License CC-BY-4.0 (https://creativecommons.org/licenses/by/4.0)
